Data/LUTs/11S_STD5HLG_SDI_V1_1.cube
TITLE "11S_STD5HLG_SDI_V1_1.cube"
# Input color space: BT.709/SDR
# Output color space: BT.2020/HLG
# SDI style
# Creation: July 01, 2024
LUT_3D_SIZE 9
0.023585 0.023585 0.023585
0.087487 0.030143 0.023213
0.218422 0.045648 0.024157
0.326436 0.070642 0.028718
0.424837 0.100127 0.040111
0.517526 0.145339 0.049366
0.589305 0.186666 0.069642
0.645405 0.222060 0.079935
0.691485 0.254537 0.097336
0.051565 0.116843 0.026008
0.118663 0.122466 0.027147
0.232654 0.131783 0.031887
0.331646 0.152387 0.039514
0.426177 0.177717 0.046276
0.517868 0.203828 0.066535
0.589534 0.230368 0.072895
0.645568 0.257176 0.086708
0.691606 0.283938 0.104196
0.117890 0.251898 0.045187
0.173954 0.253311 0.046300
0.251526 0.256342 0.049236
0.339365 0.262377 0.064189
0.430154 0.271938 0.069754
0.520000 0.284853 0.075189
0.590618 0.300605 0.086987
0.646209 0.318637 0.101967
0.692026 0.338285 0.119149
0.204375 0.361246 0.076022
0.234532 0.362003 0.077170
0.288110 0.363712 0.079824
0.360675 0.366912 0.084712
0.442858 0.372000 0.092039
0.526931 0.379269 0.101810
0.594104 0.388817 0.113947
0.648184 0.400569 0.128354
0.693253 0.414219 0.143852
0.273026 0.465968 0.115845
0.293414 0.466499 0.117087
0.333416 0.467685 0.119812
0.392966 0.469840 0.124571
0.465269 0.473174 0.131484
0.539976 0.477908 0.140278
0.601248 0.484225 0.150047
0.652411 0.492222 0.160487
0.695923 0.501595 0.171309
0.336441 0.558835 0.161686
0.351792 0.559144 0.162518
0.383271 0.559827 0.164320
0.432741 0.561048 0.167405
0.495794 0.562892 0.171750
0.558209 0.565446 0.177263
0.612251 0.568795 0.183815
0.659360 0.572993 0.191262
0.700502 0.578012 0.199398
0.397774 0.627045 0.199472
0.410027 0.627236 0.200043
0.435748 0.627660 0.201292
0.477525 0.628413 0.203457
0.529428 0.629540 0.206568
0.579846 0.631088 0.210608
0.626486 0.633106 0.215533
0.668948 0.635640 0.221283
0.707131 0.638694 0.227727
0.458091 0.681279 0.233548
0.468243 0.681410 0.233986
0.489854 0.681699 0.234947
0.523389 0.682211 0.236624
0.562557 0.682974 0.239054
0.603250 0.684015 0.242244
0.643040 0.685363 0.246182
0.680756 0.687048 0.250843
0.718857 0.692320 0.258258
0.515979 0.726242 0.265522
0.523646 0.726336 0.265879
0.539350 0.726545 0.266663
0.565771 0.728638 0.269249
0.599112 0.732029 0.273292
0.638353 0.738543 0.280213
0.680794 0.747861 0.290005
0.724732 0.759754 0.302794
0.767071 0.772861 0.317737
0.028435 0.024400 0.126004
0.090627 0.031052 0.124675
0.220820 0.045889 0.113790
0.327697 0.071089 0.115195
0.425628 0.101143 0.120678
0.518002 0.146229 0.128977
0.589563 0.187229 0.139862
0.645555 0.222470 0.151792
0.691579 0.254857 0.163765
0.054901 0.117543 0.124043
0.123105 0.123105 0.123105
0.234683 0.132688 0.120455
0.332764 0.153264 0.122249
0.426922 0.178362 0.127550
0.518336 0.204322 0.135762
0.589785 0.230757 0.146128
0.645715 0.257491 0.157121
0.691700 0.284201 0.168381
0.121995 0.252132 0.129656
0.177009 0.253522 0.130516
0.253288 0.256578 0.132440
0.340465 0.262633 0.136169
0.430889 0.272193 0.142069
0.520452 0.285092 0.149622
0.590864 0.300825 0.158286
0.646357 0.318837 0.167783
0.692124 0.338468 0.177814
0.206537 0.361283 0.152750
0.236322 0.362044 0.153634
0.289452 0.363763 0.155540
0.361634 0.366977 0.158793
0.443544 0.372080 0.163381
0.527361 0.379362 0.169212
0.594351 0.388919 0.176140
0.648340 0.400678 0.184002
0.693360 0.414333 0.192561
0.274388 0.465943 0.179241
0.294652 0.466477 0.179905
0.334457 0.467670 0.181349
0.393791 0.469837 0.183841
0.465910 0.473187 0.187400
0.540384 0.477938 0.191999
0.601501 0.484270 0.197578
0.652579 0.492279 0.204051
0.696040 0.501659 0.211256
0.337442 0.558817 0.206354
0.352737 0.559126 0.206876
0.384117 0.559813 0.208018
0.433461 0.561040 0.210001
0.496376 0.562890 0.212860
0.558580 0.565452 0.216592
0.612498 0.568808 0.221176
0.659531 0.573014 0.226567
0.700625 0.578038 0.232657
0.398564 0.627033 0.233804
0.410787 0.627225 0.234230
0.436453 0.627650 0.235165
0.478152 0.628406 0.236796
0.529890 0.629536 0.239159
0.580169 0.631087 0.242267
0.626716 0.633110 0.246113
0.669114 0.635647 0.250677
0.707255 0.638706 0.255882
0.458742 0.681271 0.261470
0.468877 0.681402 0.261828
0.490453 0.681691 0.262614
0.523868 0.682205 0.263989
0.562923 0.682970 0.265990
0.603525 0.684012 0.268632
0.643247 0.685363 0.271920
0.680912 0.687050 0.275846
0.719230 0.692583 0.282931
0.516475 0.726236 0.289054
0.524118 0.726330 0.289361
0.539775 0.726539 0.290037
0.566438 0.728893 0.292785
0.599676 0.732265 0.296783
0.639013 0.738931 0.303968
0.681462 0.748313 0.314105
0.725336 0.760198 0.327322
0.767573 0.773251 0.342690
0.039405 0.026703 0.291157
0.096120 0.033774 0.290267
0.222550 0.047170 0.270354
0.328531 0.071922 0.257428
0.426177 0.103248 0.250590
0.518391 0.148018 0.247157
0.589837 0.188359 0.246536
0.645756 0.223310 0.248121
0.691733 0.255530 0.251339
0.070654 0.116300 0.286011
0.130385 0.122543 0.280964
0.236973 0.133838 0.266804
0.333882 0.154711 0.256584
0.427695 0.179490 0.250867
0.518869 0.205229 0.248424
0.590116 0.231508 0.248391
0.645943 0.258128 0.250227
0.691867 0.284751 0.253531
0.130682 0.251784 0.259992
0.182992 0.253250 0.258791
0.256533 0.256533 0.256533
0.342329 0.262811 0.253950
0.432074 0.272512 0.252130
0.521186 0.285478 0.251616
0.591285 0.301232 0.252528
0.646631 0.319239 0.254798
0.692316 0.338854 0.258258
0.211058 0.361104 0.257445
0.240053 0.361893 0.257333
0.292217 0.363670 0.257145
0.363580 0.366967 0.257025
0.444922 0.372153 0.257277
0.528224 0.379503 0.258193
0.594854 0.389110 0.259966
0.648664 0.400899 0.262679
0.693585 0.414571 0.266297
0.277326 0.465836 0.264764
0.297324 0.466381 0.264920
0.336704 0.467595 0.265274
0.395570 0.469796 0.265941
0.467289 0.473188 0.267024
0.541256 0.477981 0.268642
0.602042 0.484352 0.270902
0.652937 0.492392 0.273875
0.696291 0.501789 0.277557
0.339622 0.558761 0.277747
0.354797 0.559074 0.277979
0.385961 0.559768 0.278493
0.435028 0.561008 0.279406
0.497638 0.562875 0.280771
0.559383 0.565456 0.282643
0.613032 0.568830 0.285075
0.659901 0.573052 0.288109
0.700891 0.578091 0.291736
0.400292 0.627001 0.294485
0.412452 0.627194 0.294733
0.437995 0.627622 0.295280
0.479523 0.628383 0.296242
0.530897 0.629521 0.297659
0.580873 0.631081 0.299563
0.627215 0.633113 0.301982
0.669476 0.635660 0.304940
0.707523 0.638727 0.308422
0.460168 0.681250 0.313850
0.470265 0.681381 0.314092
0.491765 0.681673 0.314625
0.524915 0.682189 0.315562
0.563724 0.682957 0.316937
0.604127 0.684005 0.318772
0.643698 0.685360 0.321088
0.681254 0.687053 0.323898
0.719858 0.692966 0.330509
0.517562 0.726221 0.334926
0.525152 0.726316 0.335155
0.541103 0.726851 0.335953
0.567668 0.729258 0.338693
0.600708 0.732602 0.342582
0.640137 0.739489 0.350153
0.682558 0.748964 0.360774
0.726308 0.760837 0.374587
0.768373 0.773814 0.390546
0.051961 0.031181 0.425931
0.111230 0.038481 0.424095
0.226850 0.049499 0.406922
0.330028 0.073628 0.389581
0.427005 0.106900 0.376134
0.518966 0.151029 0.365994
0.590247 0.190287 0.359184
0.646062 0.224750 0.355071
0.691970 0.256688 0.353024
0.079935 0.117478 0.421178
0.144166 0.123750 0.415365
0.241352 0.136129 0.400090
0.335838 0.157137 0.384800
0.428947 0.181388 0.373028
0.519706 0.206764 0.364644
0.590631 0.232786 0.358985
0.646299 0.259215 0.355512
0.692131 0.285695 0.353834
0.145618 0.251188 0.386883
0.192643 0.252817 0.384543
0.261975 0.256449 0.380003
0.345475 0.263084 0.373900
0.434057 0.273026 0.367821
0.522393 0.286114 0.362731
0.591972 0.301910 0.358999
0.647074 0.319917 0.356677
0.692629 0.339509 0.355697
0.218626 0.360740 0.371298
0.246359 0.361580 0.370586
0.296927 0.363459 0.369121
0.366903 0.366903 0.366903
0.447269 0.372240 0.364383
0.529680 0.379716 0.362055
0.595700 0.389414 0.360295
0.649206 0.401262 0.359324
0.693959 0.414968 0.359239
0.282368 0.465607 0.367107
0.301916 0.466170 0.366898
0.340574 0.467424 0.366464
0.398638 0.469688 0.365794
0.469665 0.473156 0.365030
0.542748 0.478029 0.364373
0.602967 0.484470 0.364029
0.653548 0.492568 0.364169
0.696717 0.502001 0.364899
0.343399 0.558640 0.369894
0.358368 0.558960 0.369884
0.389159 0.559669 0.369871
0.437748 0.560932 0.369879
0.499811 0.562830 0.369965
0.560769 0.565446 0.370218
0.613954 0.568855 0.370739
0.660538 0.573108 0.371631
0.701348 0.578173 0.372963
0.403302 0.626932 0.377600
0.415350 0.627128 0.377680
0.440681 0.627562 0.377858
0.481912 0.628333 0.378182
0.532641 0.629484 0.378686
0.582094 0.631061 0.379415
0.628082 0.633110 0.380423
0.670104 0.635675 0.381766
0.707988 0.638759 0.383481
0.462659 0.681206 0.389010
0.472692 0.681339 0.389130
0.494040 0.681633 0.389397
0.526734 0.682154 0.389871
0.565117 0.682929 0.390579
0.605175 0.683985 0.391547
0.644486 0.685350 0.392808
0.681849 0.687053 0.394395
0.720949 0.693627 0.401054
0.519454 0.726190 0.403170
0.526950 0.726285 0.403308
0.543568 0.727516 0.404730
0.569809 0.729887 0.407474
0.602978 0.733602 0.411815
0.642092 0.740453 0.419894
0.684463 0.750089 0.431609
0.727997 0.761944 0.446658
0.769765 0.774790 0.463831
0.073409 0.038060 0.547295
0.133611 0.044606 0.544723
0.234770 0.054768 0.533151
0.332989 0.077943 0.518061
0.428473 0.112204 0.502673
0.519861 0.155217 0.488508
0.590831 0.193033 0.477318
0.646484 0.226815 0.468983
0.692293 0.258354 0.462953
0.102913 0.121155 0.542998
0.163952 0.127266 0.537996
0.248568 0.140053 0.526555
0.339174 0.160629 0.511862
0.430929 0.184106 0.497696
0.520942 0.208962 0.485454
0.591363 0.234617 0.475725
0.646793 0.260777 0.468273
0.692493 0.287052 0.462793
0.164902 0.250721 0.513257
0.205391 0.252546 0.510609
0.269634 0.256537 0.505242
0.350030 0.263566 0.497356
0.436937 0.273790 0.488490
0.524120 0.287029 0.480094
0.592944 0.302881 0.472878
0.647697 0.320886 0.467043
0.693064 0.340447 0.462617
0.229021 0.360249 0.491041
0.255147 0.361156 0.489895
0.303595 0.363172 0.487497
0.371655 0.366811 0.483725
0.450639 0.372355 0.479112
0.531754 0.380009 0.474291
0.596904 0.389837 0.469778
0.649974 0.401773 0.465905
0.694487 0.415530 0.462872
0.289522 0.465251 0.478607
0.308457 0.465841 0.478110
0.346114 0.467152 0.477053
0.403047 0.469507 0.475324
0.473087 0.473087 0.473087
0.544880 0.478075 0.470603
0.604289 0.484622 0.468155
0.654421 0.492805 0.465985
0.697325 0.502294 0.464289
0.348831 0.558444 0.473626
0.363508 0.558773 0.473417
0.393771 0.559503 0.472968
0.441677 0.560802 0.472226
0.502920 0.562746 0.471249
0.562760 0.565414 0.470147
0.615280 0.568875 0.469062
0.661454 0.573176 0.468138
0.702005 0.578281 0.467510
0.407658 0.626818 0.474099
0.419549 0.627018 0.474032
0.444575 0.627461 0.473891
0.485377 0.628246 0.473662
0.535152 0.629418 0.473373
0.583856 0.631020 0.473077
0.629335 0.633096 0.472844
0.671011 0.635687 0.472758
0.708661 0.638796 0.472899
0.466282 0.681132 0.478788
0.476220 0.681267 0.478799
0.497311 0.681566 0.478824
0.529358 0.682094 0.478878
0.567131 0.682879 0.478978
0.606694 0.683948 0.479154
0.645627 0.685328 0.479445
0.682712 0.687047 0.479900
0.722541 0.694593 0.487585
0.522255 0.726194 0.486854
0.530625 0.727101 0.487985
0.547118 0.728466 0.489643
0.572898 0.730786 0.492466
0.606392 0.735159 0.497900
0.644975 0.741888 0.506304
0.687209 0.751698 0.518565
0.730493 0.763591 0.533285
0.771773 0.776190 0.548644
0.101980 0.045894 0.631761
0.161653 0.049496 0.629203
0.245939 0.068656 0.622531
0.337918 0.084893 0.612776
0.430971 0.119210 0.601545
0.521274 0.160475 0.590371
0.591667 0.196584 0.580620
0.647055 0.229514 0.572421
0.692715 0.260540 0.565696
0.133280 0.127027 0.628045
0.185284 0.132996 0.624655
0.258606 0.145803 0.617683
0.344290 0.165191 0.607866
0.433932 0.187668 0.597405
0.522719 0.211845 0.587548
0.592372 0.237021 0.578797
0.647453 0.262828 0.571280
0.692966 0.288837 0.565024
0.185723 0.250786 0.608666
0.220558 0.252764 0.606737
0.279424 0.257041 0.602765
0.356107 0.264407 0.596712
0.440845 0.274889 0.589560
0.526439 0.288270 0.582220
0.594242 0.304171 0.575281
0.648518 0.322164 0.569054
0.693632 0.341681 0.563715
0.241850 0.359754 0.590921
0.266185 0.360735 0.589947
0.312147 0.362902 0.587880
0.377853 0.366764 0.584531
0.455078 0.372547 0.580239
0.534468 0.380410 0.575464
0.598484 0.390399 0.570629
0.650981 0.402443 0.566051
0.695176 0.416265 0.561969
0.298690 0.464803 0.578245
0.316881 0.465427 0.577732
0.353301 0.466808 0.576630
0.408808 0.469276 0.574790
0.477580 0.472996 0.572322
0.547660 0.478130 0.569429
0.606021 0.484812 0.566346
0.655564 0.493107 0.563294
0.698121 0.502669 0.560478
0.355905 0.558174 0.570278
0.370215 0.558517 0.570003
0.399806 0.559274 0.569409
0.446836 0.560619 0.568404
0.506952 0.562624 0.567025
0.565360 0.565360 0.565360
0.617018 0.568891 0.563532
0.662657 0.573256 0.561673
0.702867 0.578414 0.559924
0.413381 0.626654 0.566273
0.425068 0.626860 0.566131
0.449701 0.627315 0.565823
0.489946 0.628121 0.565298
0.538429 0.629320 0.564572
0.586166 0.630954 0.563687
0.630981 0.633067 0.562704
0.672205 0.635695 0.561700
0.709546 0.638837 0.560764
0.471064 0.681025 0.565552
0.480879 0.681163 0.565488
0.501567 0.681467 0.565348
0.532786 0.682006 0.565112
0.569774 0.682805 0.564785
0.608691 0.683891 0.564392
0.647131 0.685290 0.563965
0.683851 0.687031 0.563548
0.725594 0.696841 0.571994
0.527528 0.727486 0.569178
0.535673 0.728365 0.570074
0.551742 0.729691 0.571337
0.576932 0.731946 0.573472
0.610835 0.737164 0.578849
0.649368 0.744321 0.586266
0.691122 0.754087 0.596510
0.733833 0.765807 0.608816
0.774395 0.778005 0.621486
0.140097 0.052393 0.695039
0.188708 0.065900 0.693023
0.259710 0.072775 0.688688
0.344979 0.094058 0.681763
0.434808 0.127934 0.673125
0.523409 0.166665 0.664017
0.592855 0.200907 0.655615
0.647823 0.232840 0.648157
0.693264 0.263252 0.641712
0.167146 0.134910 0.691730
0.207192 0.140773 0.689463
0.271114 0.152916 0.684768
0.351361 0.170752 0.677757
0.438209 0.192067 0.669672
0.525194 0.215423 0.661519
0.593739 0.240010 0.653858
0.648322 0.265381 0.646936
0.693573 0.291060 0.640877
0.207395 0.251622 0.678314
0.237548 0.253694 0.676844
0.291171 0.258156 0.673773
0.363769 0.265750 0.668949
0.445903 0.276415 0.663013
0.529431 0.289893 0.656650
0.595915 0.305813 0.650371
0.649568 0.323774 0.644482
0.694350 0.343227 0.639185
0.256681 0.359407 0.663892
0.279179 0.360460 0.663050
0.322458 0.362774 0.661256
0.385487 0.366856 0.658311
0.460626 0.372883 0.654459
0.537845 0.380967 0.650057
0.600466 0.391128 0.645452
0.652244 0.403292 0.640920
0.696038 0.417187 0.636687
0.309708 0.464324 0.652049
0.327064 0.464985 0.651563
0.362069 0.466445 0.650515
0.415904 0.469041 0.648751
0.483156 0.472919 0.646353
0.551084 0.478221 0.643482
0.608170 0.485061 0.640335
0.656988 0.493487 0.637101
0.699112 0.503136 0.633967
0.364562 0.557848 0.643343
0.378442 0.558206 0.643055
0.407239 0.558997 0.642432
0.453219 0.560397 0.641369
0.511869 0.562474 0.639892
0.568563 0.565293 0.638072
0.619172 0.568908 0.636012
0.664152 0.573351 0.633827
0.703939 0.578576 0.631646
0.420455 0.626445 0.637527
0.431898 0.626658 0.637356
0.456056 0.627127 0.636984
0.495574 0.627958 0.636346
0.542450 0.629192 0.635448
0.589020 0.630867 0.634323
0.633024 0.633024 0.633024
0.673690 0.635697 0.631619
0.710648 0.638883 0.630190
0.477012 0.680884 0.634231
0.486677 0.681025 0.634131
0.506764 0.681337 0.633915
0.536996 0.681888 0.633542
0.573036 0.682705 0.633015
0.611167 0.683813 0.632349
0.649002 0.685237 0.631573
0.686582 0.688315 0.632104
0.729307 0.699555 0.640834
0.533952 0.729046 0.636444
0.541830 0.729891 0.637197
0.557396 0.731170 0.638231
0.583246 0.734528 0.641256
0.616260 0.739580 0.645852
0.654721 0.747246 0.653032
0.695996 0.757058 0.662310
0.737907 0.768486 0.673137
0.777607 0.780209 0.684101
0.177860 0.069432 0.746265
0.214475 0.071812 0.744854
0.275443 0.082235 0.741758
0.354089 0.105159 0.736558
0.440155 0.138363 0.729725
0.526424 0.173646 0.722252
0.594493 0.205955 0.715003
0.648848 0.236782 0.708273
0.693972 0.266486 0.702226
0.197135 0.144688 0.743399
0.229460 0.150089 0.741802
0.285649 0.160868 0.738466
0.360361 0.177193 0.733250
0.443912 0.197265 0.726873
0.528489 0.219689 0.720075
0.595549 0.243588 0.713378
0.649449 0.268443 0.707073
0.694344 0.293729 0.701346
0.229565 0.253332 0.733677
0.255897 0.255446 0.732530
0.304650 0.259993 0.730108
0.373009 0.267697 0.726209
0.452202 0.278445 0.721247
0.533163 0.291951 0.715731
0.598020 0.307844 0.710090
0.650883 0.325737 0.704617
0.695243 0.345099 0.699529
0.273112 0.359351 0.721886
0.293829 0.360466 0.721159
0.334370 0.362910 0.719602
0.394520 0.367190 0.717020
0.467311 0.373441 0.713585
0.541901 0.381734 0.709572
0.602875 0.392064 0.705270
0.653785 0.404347 0.700923
0.697089 0.418315 0.696743
0.322377 0.463892 0.711129
0.338847 0.464591 0.710677
0.372320 0.466133 0.709699
0.424297 0.468860 0.708045
0.489816 0.472905 0.705774
0.555143 0.478386 0.703016
0.610743 0.485397 0.699936
0.658701 0.493965 0.696701
0.700306 0.503707 0.693482
0.374710 0.557493 0.702415
0.388112 0.557869 0.702130
0.416016 0.558697 0.701510
0.460801 0.560159 0.700448
0.517613 0.562318 0.698962
0.572353 0.565230 0.697109
0.621740 0.568939 0.694978
0.665942 0.573470 0.692670
0.705226 0.578772 0.690307
0.428840 0.626201 0.695843
0.440003 0.626421 0.695661
0.463614 0.626907 0.695263
0.502122 0.627767 0.694578
0.547180 0.629040 0.693606
0.592403 0.630764 0.692376
0.635459 0.632973 0.690932
0.675467 0.635699 0.689334
0.711969 0.638935 0.687662
0.484111 0.680712 0.691251
0.493584 0.680857 0.691134
0.512836 0.681177 0.690879
0.541946 0.681743 0.690437
0.576896 0.682581 0.689807
0.614113 0.683715 0.689001
0.651235 0.685170 0.688043
0.690370 0.690370 0.690370
0.733620 0.702680 0.699426
0.541432 0.730843 0.693616
0.549458 0.732021 0.694657
0.565439 0.734085 0.696405
0.590675 0.737565 0.699336
0.623258 0.742952 0.703954
0.660955 0.750600 0.710648
0.701676 0.760470 0.719363
0.742657 0.771576 0.729059
0.781375 0.782769 0.738563
0.209650 0.076962 0.789386
0.239311 0.082386 0.788312
0.292493 0.095181 0.785935
0.364953 0.117923 0.781867
0.447026 0.149551 0.776359
0.530367 0.181221 0.770191
0.596645 0.211619 0.763935
0.650173 0.241276 0.757901
0.694868 0.270204 0.752299
0.224656 0.155082 0.786800
0.251799 0.159791 0.785626
0.301655 0.169387 0.783138
0.371053 0.184319 0.779125
0.451031 0.203144 0.774007
0.532636 0.224574 0.768307
0.597849 0.247711 0.762461
0.650872 0.271984 0.756762
0.695304 0.296821 0.751425
0.251859 0.255902 0.779470
0.275096 0.258017 0.778557
0.319488 0.262570 0.776612
0.383665 0.270278 0.773424
0.459718 0.281010 0.769254
0.537632 0.294465 0.764474
0.600580 0.310273 0.759435
0.652488 0.328055 0.754405
0.696326 0.347295 0.749600
0.290653 0.359696 0.769756
0.309716 0.360861 0.769128
0.347597 0.363409 0.767778
0.404798 0.367849 0.765519
0.475072 0.374288 0.762469
0.546596 0.382760 0.758840
0.605707 0.393237 0.754870
0.655610 0.405625 0.750770
0.698336 0.419656 0.746739
0.336365 0.463593 0.760122
0.351943 0.464328 0.759706
0.383837 0.465948 0.758805
0.433845 0.468802 0.757273
0.497386 0.473010 0.755153
0.559776 0.478668 0.752548
0.613719 0.485849 0.749599
0.660697 0.494560 0.746450
0.701702 0.504395 0.743257
0.386135 0.557150 0.751728
0.399029 0.557544 0.751452
0.425978 0.558411 0.750850
0.469463 0.559937 0.749818
0.524057 0.562181 0.748364
0.576667 0.565191 0.746538
0.624691 0.569001 0.744414
0.668012 0.573627 0.742083
0.706721 0.579011 0.739655
0.438391 0.625938 0.744899
0.449249 0.626167 0.744713
0.472260 0.626672 0.744308
0.509426 0.627563 0.743608
0.552523 0.628880 0.742611
0.596262 0.630655 0.741340
0.638256 0.632923 0.739833
0.677517 0.635708 0.738145
0.713499 0.639000 0.736350
0.492253 0.680518 0.739626
0.501316 0.680667 0.739500
0.519639 0.680997 0.739225
0.547534 0.681580 0.738747
0.581285 0.682441 0.738063
0.617483 0.683605 0.737181
0.653804 0.685093 0.736123
0.694862 0.692869 0.740603
0.739449 0.707188 0.750902
0.551656 0.734383 0.744418
0.559548 0.735691 0.745523
0.574781 0.737625 0.747027
0.599320 0.741221 0.749871
0.631575 0.747114 0.754671
0.668596 0.754906 0.761034
0.708272 0.764454 0.768830
0.747973 0.774996 0.777316
0.785620 0.785620 0.785620
