Data/LUTs/11S_STD5HLG_SDI_V1_1.cube
TITLE "11S_STD5HLG_SDI_V1_1.cube"
# Input color space: BT.709/SDR
# Output color space: BT.2020/HLG
# SDI style
# Creation: July 01, 2024
LUT_3D_SIZE 5
0.023585 0.023585 0.023585
0.218422 0.045648 0.024157
0.424837 0.100127 0.040111
0.589305 0.186666 0.069642
0.691485 0.254537 0.097336
0.117890 0.251898 0.045187
0.251526 0.256342 0.049236
0.430154 0.271938 0.069754
0.590618 0.300605 0.086987
0.692026 0.338285 0.119149
0.273026 0.465968 0.115845
0.333416 0.467685 0.119812
0.465269 0.473174 0.131484
0.601248 0.484225 0.150047
0.695923 0.501595 0.171309
0.397774 0.627045 0.199472
0.435748 0.627660 0.201292
0.529428 0.629540 0.206568
0.626486 0.633106 0.215533
0.707131 0.638694 0.227727
0.515979 0.726242 0.265522
0.539350 0.726545 0.266663
0.599112 0.732029 0.273292
0.680794 0.747861 0.290005
0.767071 0.772861 0.317737
0.039405 0.026703 0.291157
0.222550 0.047170 0.270354
0.426177 0.103248 0.250590
0.589837 0.188359 0.246536
0.691733 0.255530 0.251339
0.130682 0.251784 0.259992
0.256533 0.256533 0.256533
0.432074 0.272512 0.252130
0.591285 0.301232 0.252528
0.692316 0.338854 0.258258
0.277326 0.465836 0.264764
0.336704 0.467595 0.265274
0.467289 0.473188 0.267024
0.602042 0.484352 0.270902
0.696291 0.501789 0.277557
0.400292 0.627001 0.294485
0.437995 0.627622 0.295280
0.530897 0.629521 0.297659
0.627215 0.633113 0.301982
0.707523 0.638727 0.308422
0.517562 0.726221 0.334926
0.541103 0.726851 0.335953
0.600708 0.732602 0.342582
0.682558 0.748964 0.360774
0.768373 0.773814 0.390546
0.073409 0.038060 0.547295
0.234770 0.054768 0.533151
0.428473 0.112204 0.502673
0.590831 0.193033 0.477318
0.692293 0.258354 0.462953
0.164902 0.250721 0.513257
0.269634 0.256537 0.505242
0.436937 0.273790 0.488490
0.592944 0.302881 0.472878
0.693064 0.340447 0.462617
0.289522 0.465251 0.478607
0.346114 0.467152 0.477053
0.473087 0.473087 0.473087
0.604289 0.484622 0.468155
0.697325 0.502294 0.464289
0.407658 0.626818 0.474099
0.444575 0.627461 0.473891
0.535152 0.629418 0.473373
0.629335 0.633096 0.472844
0.708661 0.638796 0.472899
0.522255 0.726194 0.486854
0.547118 0.728466 0.489643
0.606392 0.735159 0.497900
0.687209 0.751698 0.518565
0.771773 0.776190 0.548644
0.140097 0.052393 0.695039
0.259710 0.072775 0.688688
0.434808 0.127934 0.673125
0.592855 0.200907 0.655615
0.693264 0.263252 0.641712
0.207395 0.251622 0.678314
0.291171 0.258156 0.673773
0.445903 0.276415 0.663013
0.595915 0.305813 0.650371
0.694350 0.343227 0.639185
0.309708 0.464324 0.652049
0.362069 0.466445 0.650515
0.483156 0.472919 0.646353
0.608170 0.485061 0.640335
0.699112 0.503136 0.633967
0.420455 0.626445 0.637527
0.456056 0.627127 0.636984
0.542450 0.629192 0.635448
0.633024 0.633024 0.633024
0.710648 0.638883 0.630190
0.533952 0.729046 0.636444
0.557396 0.731170 0.638231
0.616260 0.739580 0.645852
0.695996 0.757058 0.662310
0.777607 0.780209 0.684101
0.209650 0.076962 0.789386
0.292493 0.095181 0.785935
0.447026 0.149551 0.776359
0.596645 0.211619 0.763935
0.694868 0.270204 0.752299
0.251859 0.255902 0.779470
0.319488 0.262570 0.776612
0.459718 0.281010 0.769254
0.600580 0.310273 0.759435
0.696326 0.347295 0.749600
0.336365 0.463593 0.760122
0.383837 0.465948 0.758805
0.497386 0.473010 0.755153
0.613719 0.485849 0.749599
0.701702 0.504395 0.743257
0.438391 0.625938 0.744899
0.472260 0.626672 0.744308
0.552523 0.628880 0.742611
0.638256 0.632923 0.739833
0.713499 0.639000 0.736350
0.551656 0.734383 0.744418
0.574781 0.737625 0.747027
0.631575 0.747114 0.754671
0.708272 0.764454 0.768830
0.785620 0.785620 0.785620
