Data/LUTs/11S_STD5HLG_SDI_V1_1.cube
TITLE "11S_STD5HLG_SDI_V1_1.cube"
# Input color space: BT.709/SDR
# Output color space: BT.2020/HLG
# SDI style
# Creation: July 01, 2024
LUT_3D_SIZE 33
0.023585 0.023585 0.023585
0.038081 0.024499 0.023172
0.049315 0.025684 0.022999
0.060663 0.027283 0.023001
0.087487 0.030143 0.023213
0.117028 0.033219 0.023414
0.151031 0.036972 0.023616
0.186921 0.041301 0.023820
0.218422 0.045648 0.024157
0.247218 0.048711 0.025052
0.274494 0.052830 0.025850
0.300802 0.066105 0.026244
0.326436 0.070642 0.028718
0.351608 0.074142 0.031407
0.376353 0.081276 0.034274
0.400741 0.090248 0.037233
0.424837 0.100127 0.040111
0.448686 0.110660 0.042552
0.472325 0.121751 0.044363
0.495726 0.133354 0.046513
0.517526 0.145339 0.049366
0.537498 0.156622 0.053901
0.555973 0.167148 0.065580
0.573182 0.177120 0.067990
0.589305 0.186666 0.069642
0.604483 0.195876 0.070996
0.618833 0.204815 0.073079
0.632447 0.213531 0.076219
0.645405 0.222060 0.079935
0.657772 0.230432 0.084001
0.669603 0.238668 0.088314
0.680949 0.246789 0.092822
0.691485 0.254537 0.097336
0.028865 0.043194 0.022479
0.043209 0.043870 0.021317
0.051502 0.044817 0.020850
0.074567 0.045922 0.020652
0.094941 0.047460 0.021030
0.124327 0.048847 0.021516
0.157712 0.050868 0.022018
0.192133 0.054147 0.022390
0.222441 0.065260 0.022543
0.250473 0.069636 0.024310
0.277222 0.072251 0.026310
0.303123 0.075637 0.028539
0.328374 0.081861 0.030987
0.353139 0.089498 0.033626
0.377529 0.097995 0.036395
0.401618 0.107160 0.039172
0.425460 0.116912 0.041705
0.449092 0.127206 0.043589
0.472542 0.138017 0.045462
0.495801 0.149045 0.047846
0.517570 0.159391 0.051192
0.537539 0.169172 0.058379
0.556011 0.178526 0.066792
0.573217 0.187549 0.068726
0.589338 0.196307 0.070206
0.604515 0.204849 0.071614
0.618863 0.213213 0.074117
0.632475 0.221427 0.077445
0.645431 0.229514 0.081243
0.657796 0.237492 0.085344
0.669626 0.245375 0.089669
0.680970 0.253177 0.094178
0.691506 0.260646 0.098689
0.035396 0.055630 0.022111
0.047152 0.057036 0.020363
0.056972 0.059699 0.019124
0.078466 0.067324 0.019203
0.102304 0.069850 0.020029
0.131250 0.071237 0.020916
0.164083 0.072492 0.022009
0.196910 0.073734 0.023320
0.226128 0.075991 0.024855
0.253429 0.080172 0.026617
0.279575 0.085624 0.028605
0.304953 0.091985 0.030811
0.329786 0.099083 0.033216
0.354210 0.106830 0.035775
0.378317 0.115178 0.038398
0.402166 0.124096 0.040906
0.425803 0.133559 0.042958
0.449258 0.143549 0.044622
0.472607 0.153447 0.046671
0.495857 0.162827 0.049374
0.517622 0.171820 0.053564
0.537587 0.180515 0.065221
0.556055 0.188973 0.067719
0.573259 0.197241 0.069378
0.589377 0.205352 0.070728
0.604551 0.213332 0.072424
0.618896 0.221202 0.075241
0.632506 0.228978 0.078709
0.645460 0.236673 0.082567
0.657823 0.244298 0.086693
0.669652 0.251862 0.091026
0.680994 0.259373 0.095535
0.691528 0.266584 0.100041
0.043380 0.080524 0.022955
0.051669 0.081653 0.021910
0.072044 0.082745 0.021394
0.081709 0.083923 0.021896
0.109513 0.085143 0.022722
0.138153 0.086678 0.023609
0.170471 0.088969 0.024701
0.201346 0.092183 0.026009
0.229384 0.096262 0.027536
0.255893 0.101092 0.029284
0.281457 0.106615 0.031245
0.306383 0.112790 0.033405
0.330851 0.119590 0.035727
0.354974 0.126991 0.038139
0.378826 0.134973 0.040503
0.402459 0.143519 0.042553
0.425939 0.152287 0.044120
0.449345 0.160741 0.045940
0.472694 0.168950 0.048264
0.495942 0.176967 0.051543
0.517698 0.184832 0.058803
0.537655 0.192573 0.066734
0.556118 0.200213 0.068614
0.573316 0.207769 0.070061
0.589429 0.215255 0.071345
0.604599 0.222680 0.073549
0.618940 0.230054 0.076628
0.632547 0.237383 0.080213
0.645497 0.244674 0.084122
0.657857 0.251932 0.088269
0.669684 0.259160 0.092607
0.681023 0.266362 0.097114
0.691555 0.273299 0.101612
0.051565 0.116843 0.026008
0.070410 0.118217 0.025396
0.077061 0.119539 0.025826
0.091684 0.120833 0.026325
0.118663 0.122466 0.027147
0.146411 0.123933 0.028027
0.177357 0.125752 0.029106
0.205938 0.128369 0.030393
0.232654 0.131783 0.031887
0.258272 0.135938 0.033578
0.283177 0.140791 0.035447
0.307588 0.146310 0.037452
0.331646 0.152387 0.039514
0.355483 0.158612 0.041485
0.379159 0.164918 0.043107
0.402714 0.171290 0.044533
0.426177 0.177717 0.046276
0.449569 0.184191 0.048504
0.472906 0.190704 0.051633
0.496138 0.197252 0.058138
0.517868 0.203828 0.066535
0.537804 0.210431 0.068407
0.556249 0.217057 0.069838
0.573433 0.223704 0.071055
0.589534 0.230368 0.072895
0.604693 0.237050 0.075687
0.619025 0.243745 0.079039
0.632624 0.250455 0.082746
0.645568 0.257176 0.086708
0.657922 0.263909 0.090873
0.669743 0.270653 0.095213
0.681078 0.277406 0.099711
0.691606 0.283938 0.104196
0.070256 0.153529 0.029692
0.076484 0.154756 0.030115
0.088153 0.155869 0.030536
0.103509 0.157010 0.031025
0.128890 0.158612 0.031826
0.155264 0.160060 0.032680
0.183274 0.161752 0.033720
0.209694 0.163919 0.034946
0.235161 0.166551 0.036346
0.260006 0.169620 0.037892
0.284421 0.173087 0.039532
0.308528 0.176910 0.041172
0.332409 0.181048 0.042651
0.356121 0.185465 0.043859
0.379703 0.190128 0.045246
0.403187 0.195006 0.046955
0.426594 0.200074 0.049160
0.449941 0.205309 0.052314
0.473241 0.210692 0.060136
0.496435 0.216206 0.066625
0.518116 0.221835 0.068390
0.538015 0.227567 0.069763
0.556431 0.233392 0.070940
0.573591 0.239299 0.072536
0.589673 0.245280 0.075087
0.604816 0.251328 0.078224
0.619134 0.257435 0.081735
0.632722 0.263597 0.085514
0.645656 0.269809 0.089505
0.658002 0.276066 0.093677
0.669816 0.282363 0.098012
0.681144 0.288699 0.102497
0.691667 0.294852 0.106965
0.078877 0.190301 0.035303
0.090682 0.191080 0.035697
0.103290 0.191772 0.036088
0.118082 0.192478 0.036537
0.142144 0.193444 0.037265
0.166493 0.194310 0.038028
0.190917 0.195408 0.038933
0.215109 0.196801 0.039962
0.239123 0.198515 0.041069
0.262986 0.200561 0.042178
0.286719 0.202938 0.043168
0.310342 0.205638 0.044137
0.333871 0.208647 0.045305
0.357322 0.211948 0.046734
0.380707 0.215521 0.048538
0.404040 0.219346 0.050964
0.427328 0.223402 0.054848
0.450580 0.227671 0.065154
0.473804 0.232135 0.067318
0.496923 0.236777 0.068807
0.518517 0.241581 0.070036
0.538350 0.246534 0.071119
0.556714 0.251622 0.072732
0.573834 0.256834 0.075188
0.589882 0.262159 0.078179
0.604999 0.267588 0.081527
0.619295 0.273111 0.085137
0.632865 0.278722 0.088959
0.645783 0.284412 0.092963
0.658116 0.290176 0.097131
0.669919 0.296008 0.101451
0.681238 0.301902 0.105917
0.691752 0.307651 0.110363
0.096725 0.222273 0.041085
0.108969 0.222779 0.041372
0.121230 0.223226 0.041649
0.135405 0.223680 0.041956
0.158083 0.224304 0.042424
0.178753 0.224954 0.042871
0.200196 0.225781 0.043344
0.222236 0.226816 0.043908
0.244667 0.228081 0.044602
0.267353 0.229593 0.045450
0.290202 0.231364 0.046489
0.313155 0.233401 0.047778
0.336171 0.235703 0.049424
0.359226 0.238266 0.051657
0.382303 0.241084 0.055245
0.405391 0.244147 0.064949
0.428485 0.247442 0.067007
0.451582 0.250959 0.068425
0.474678 0.254684 0.069600
0.497673 0.258604 0.070639
0.519127 0.262707 0.071717
0.538854 0.266981 0.073558
0.557136 0.271414 0.076036
0.574191 0.275994 0.078945
0.590188 0.280712 0.082161
0.605263 0.285559 0.085619
0.619526 0.290524 0.089278
0.633067 0.295600 0.093114
0.645963 0.300779 0.097114
0.658276 0.306053 0.101266
0.670062 0.311417 0.105565
0.681367 0.316863 0.110003
0.691869 0.322198 0.114421
0.117890 0.251898 0.045187
0.129767 0.252231 0.045398
0.141561 0.252523 0.045613
0.154893 0.252823 0.045868
0.173954 0.253311 0.046300
0.191570 0.253842 0.046784
0.210571 0.254512 0.047409
0.230656 0.255339 0.048210
0.251526 0.256342 0.049236
0.272967 0.257535 0.050574
0.294823 0.258933 0.052403
0.316983 0.260545 0.055257
0.339365 0.262377 0.064189
0.361910 0.264434 0.066294
0.384576 0.266715 0.067650
0.407331 0.269218 0.068766
0.430154 0.271938 0.069754
0.453028 0.274870 0.070660
0.475942 0.278005 0.071571
0.498750 0.281336 0.073084
0.520000 0.284853 0.075189
0.539572 0.288547 0.077721
0.557734 0.292410 0.080572
0.574696 0.296432 0.083674
0.590618 0.300605 0.086987
0.605633 0.304920 0.090487
0.619847 0.309369 0.094157
0.633348 0.313944 0.097987
0.646209 0.318637 0.101967
0.658494 0.323441 0.106093
0.670256 0.328351 0.110361
0.681541 0.333359 0.114766
0.692026 0.338285 0.119149
0.141338 0.280172 0.051172
0.152521 0.280391 0.051560
0.162675 0.280607 0.051967
0.173455 0.280858 0.052471
0.189415 0.281273 0.053388
0.204740 0.281724 0.054542
0.221727 0.282287 0.056401
0.240075 0.282979 0.063126
0.259471 0.283810 0.065181
0.279672 0.284795 0.066335
0.300492 0.285943 0.067297
0.321789 0.287267 0.068163
0.343454 0.288774 0.068972
0.365404 0.290471 0.069741
0.387575 0.292361 0.070479
0.409919 0.294447 0.071194
0.432399 0.296729 0.072140
0.454985 0.299203 0.073621
0.477658 0.301869 0.075538
0.500207 0.304720 0.077802
0.521184 0.307752 0.080344
0.540547 0.310958 0.083122
0.558547 0.314333 0.086104
0.575380 0.317870 0.089272
0.591200 0.321562 0.092612
0.606132 0.325402 0.096113
0.620278 0.329383 0.099769
0.633723 0.333499 0.103574
0.646538 0.337742 0.107523
0.658785 0.342106 0.111614
0.670513 0.346586 0.115843
0.681770 0.351176 0.120208
0.692233 0.355708 0.124550
0.164685 0.307623 0.067340
0.173546 0.307811 0.067522
0.181825 0.307998 0.067697
0.190861 0.308217 0.067892
0.204614 0.308578 0.068196
0.218154 0.308969 0.068503
0.233462 0.309457 0.068857
0.250280 0.310052 0.069253
0.268313 0.310763 0.069682
0.287319 0.311600 0.070140
0.307102 0.312574 0.070620
0.327506 0.313692 0.071117
0.348405 0.314965 0.071683
0.369701 0.316398 0.072566
0.391313 0.317997 0.073791
0.413181 0.319766 0.075328
0.435255 0.321709 0.077142
0.457496 0.323825 0.079203
0.479873 0.326115 0.081485
0.502086 0.328577 0.083969
0.522718 0.331209 0.086640
0.541815 0.334008 0.089486
0.559606 0.336969 0.092499
0.576273 0.340088 0.095671
0.591960 0.343361 0.098999
0.606784 0.346782 0.102477
0.620841 0.350346 0.106101
0.634213 0.354047 0.109870
0.646967 0.357881 0.113779
0.659162 0.361841 0.117826
0.670847 0.365922 0.122010
0.682067 0.370119 0.126329
0.692499 0.374279 0.130626
0.185323 0.334599 0.070991
0.192710 0.334765 0.071086
0.199745 0.334931 0.071180
0.207547 0.335125 0.071287
0.219635 0.335445 0.071460
0.231745 0.335790 0.071670
0.245641 0.336220 0.071974
0.261113 0.336742 0.072399
0.277901 0.337363 0.072969
0.295777 0.338092 0.073705
0.314549 0.338935 0.074619
0.334056 0.339902 0.075721
0.354166 0.340998 0.077013
0.374770 0.342233 0.078495
0.395780 0.343610 0.080164
0.417123 0.345136 0.082016
0.438742 0.346813 0.084044
0.460587 0.348645 0.086244
0.482620 0.350634 0.088612
0.504410 0.352780 0.091143
0.524629 0.355083 0.093833
0.543403 0.357541 0.096678
0.560939 0.360152 0.099676
0.577401 0.362915 0.102824
0.592922 0.365825 0.106119
0.607610 0.368880 0.109559
0.621555 0.372076 0.113141
0.634834 0.375408 0.116864
0.647510 0.378873 0.120726
0.659640 0.382466 0.124724
0.671270 0.386182 0.128858
0.682442 0.390017 0.133113
0.692835 0.393832 0.137177
0.204375 0.361246 0.076022
0.210743 0.361395 0.076245
0.216876 0.361543 0.076469
0.223751 0.361717 0.076732
0.234532 0.362003 0.077170
0.245469 0.362312 0.077647
0.258165 0.362696 0.078242
0.272453 0.363161 0.078965
0.288110 0.363712 0.079824
0.304931 0.364357 0.080824
0.322732 0.365101 0.081970
0.341358 0.365950 0.083265
0.360675 0.366912 0.084712
0.380570 0.367993 0.086312
0.400949 0.369198 0.088067
0.421734 0.370532 0.089976
0.442858 0.372000 0.092039
0.464267 0.373606 0.094256
0.485916 0.375351 0.096624
0.507188 0.377239 0.099142
0.526931 0.379269 0.101810
0.545328 0.381443 0.104626
0.562563 0.383760 0.107589
0.578782 0.386218 0.110696
0.594104 0.388817 0.113947
0.608628 0.391554 0.117339
0.622438 0.394427 0.120872
0.635603 0.397433 0.124544
0.648184 0.400569 0.128354
0.660232 0.403831 0.132298
0.671794 0.407217 0.136258
0.682908 0.410722 0.140149
0.693253 0.414219 0.143852
0.222412 0.387653 0.084434
0.228020 0.387787 0.084686
0.233465 0.387922 0.084938
0.239612 0.388079 0.085232
0.249337 0.388338 0.085717
0.259298 0.388618 0.086238
0.270963 0.388964 0.086880
0.284207 0.389383 0.087650
0.298841 0.389879 0.088554
0.314681 0.390456 0.089594
0.331563 0.391121 0.090772
0.349336 0.391879 0.092093
0.367870 0.392735 0.093556
0.387052 0.393694 0.095165
0.406786 0.394762 0.096918
0.426989 0.395944 0.098818
0.447592 0.397244 0.100865
0.468534 0.398666 0.103058
0.489766 0.400213 0.105397
0.510414 0.401888 0.107881
0.529627 0.403693 0.110511
0.547600 0.405629 0.113284
0.564492 0.407697 0.116201
0.580430 0.409897 0.119260
0.595521 0.412228 0.122460
0.609853 0.414690 0.125801
0.623502 0.417281 0.129280
0.636533 0.420000 0.132895
0.649000 0.422844 0.136531
0.660953 0.425811 0.140129
0.672432 0.428900 0.143694
0.683476 0.432107 0.147229
0.693762 0.435314 0.150619
0.239748 0.413882 0.094139
0.244766 0.414005 0.094393
0.249663 0.414127 0.094647
0.255223 0.414271 0.094943
0.264076 0.414507 0.095429
0.273210 0.414762 0.095951
0.283983 0.415077 0.096593
0.296303 0.415458 0.097362
0.310011 0.415909 0.098261
0.324947 0.416432 0.099294
0.340962 0.417033 0.100463
0.357917 0.417717 0.101769
0.375688 0.418487 0.103215
0.394164 0.419348 0.104802
0.413249 0.420306 0.106530
0.432860 0.421364 0.108401
0.452923 0.422527 0.110414
0.473376 0.423799 0.112570
0.494142 0.425183 0.114869
0.514074 0.426682 0.117310
0.532711 0.428299 0.119894
0.550218 0.430036 0.122620
0.566728 0.431893 0.125486
0.582351 0.433872 0.128493
0.597181 0.435974 0.131640
0.611295 0.438198 0.134891
0.624761 0.440543 0.138143
0.637636 0.443010 0.141392
0.649972 0.445598 0.144636
0.661811 0.448303 0.147875
0.673194 0.451126 0.151111
0.684155 0.454064 0.154343
0.694371 0.457009 0.157461
0.256577 0.439976 0.104656
0.261120 0.440089 0.104907
0.265571 0.440202 0.105157
0.270644 0.440334 0.105447
0.278764 0.440551 0.105926
0.287190 0.440785 0.106439
0.297186 0.441075 0.107070
0.308685 0.441424 0.107826
0.321554 0.441836 0.108709
0.335658 0.442314 0.109724
0.350861 0.442863 0.110871
0.367038 0.443485 0.112153
0.384072 0.444184 0.113572
0.401856 0.444965 0.115128
0.420297 0.445832 0.116823
0.439311 0.446789 0.118658
0.458825 0.447839 0.120632
0.478775 0.448987 0.122746
0.498960 0.450236 0.125001
0.518141 0.451588 0.127396
0.536167 0.453047 0.129932
0.553174 0.454615 0.132607
0.569270 0.456294 0.135382
0.584549 0.458085 0.138192
0.599090 0.459989 0.141030
0.612961 0.462008 0.143893
0.626221 0.464140 0.146780
0.638921 0.466387 0.149687
0.651106 0.468748 0.152612
0.662817 0.471221 0.155554
0.674089 0.473807 0.158511
0.684954 0.476503 0.161481
0.695089 0.479212 0.164362
0.273026 0.465968 0.115845
0.277177 0.466072 0.116090
0.281256 0.466176 0.116335
0.285920 0.466298 0.116619
0.293414 0.466499 0.117087
0.301228 0.466715 0.117590
0.310540 0.466983 0.118207
0.321306 0.467305 0.118947
0.333416 0.467685 0.119812
0.346754 0.468125 0.120804
0.361200 0.468629 0.121927
0.376640 0.469199 0.123182
0.392966 0.469840 0.124571
0.410078 0.470554 0.126094
0.427886 0.471345 0.127754
0.446307 0.472217 0.129550
0.465269 0.473174 0.131484
0.484707 0.474218 0.133556
0.504178 0.475353 0.135728
0.522585 0.476582 0.137971
0.539976 0.477908 0.140278
0.556455 0.479333 0.142644
0.572111 0.480860 0.145063
0.587020 0.482490 0.147533
0.601248 0.484225 0.150047
0.614853 0.486065 0.152603
0.627886 0.488012 0.155197
0.640392 0.490066 0.157826
0.652411 0.492222 0.160487
0.663977 0.494466 0.163177
0.675124 0.496792 0.165895
0.685880 0.499198 0.168638
0.695923 0.501595 0.171309
0.289182 0.491876 0.127648
0.293003 0.491972 0.127887
0.296767 0.492069 0.128126
0.301081 0.492181 0.128404
0.308035 0.492367 0.128861
0.315314 0.492566 0.129352
0.324022 0.492812 0.129956
0.334132 0.493108 0.130679
0.345553 0.493457 0.131524
0.358185 0.493859 0.132495
0.371926 0.494318 0.133593
0.386671 0.494837 0.134813
0.402322 0.495417 0.136141
0.418785 0.496061 0.137572
0.435975 0.496771 0.139103
0.453811 0.497551 0.140726
0.472223 0.498402 0.142439
0.491146 0.499327 0.144236
0.509749 0.500327 0.146113
0.527374 0.501405 0.148064
0.544113 0.502563 0.150084
0.560046 0.503800 0.152170
0.575240 0.505119 0.154318
0.589757 0.506519 0.156522
0.603652 0.508002 0.158780
0.616972 0.509566 0.161088
0.629759 0.511211 0.163442
0.642053 0.512936 0.165839
0.653888 0.514739 0.168277
0.665295 0.516621 0.170753
0.676303 0.518577 0.173263
0.686937 0.520607 0.175807
0.696878 0.522636 0.178294
0.305107 0.516315 0.139819
0.308646 0.516396 0.140036
0.312139 0.516478 0.140252
0.316151 0.516573 0.140503
0.322635 0.516729 0.140914
0.329442 0.516898 0.141352
0.337613 0.517105 0.141888
0.347132 0.517355 0.142526
0.357927 0.517649 0.143266
0.369911 0.517988 0.144107
0.382995 0.518375 0.145048
0.397087 0.518811 0.146089
0.412096 0.519298 0.147227
0.427936 0.519839 0.148458
0.444526 0.520436 0.149781
0.461790 0.521089 0.151193
0.479659 0.521803 0.152689
0.497959 0.522578 0.154267
0.515628 0.523416 0.155922
0.532472 0.524319 0.157652
0.548551 0.525289 0.159452
0.563924 0.526326 0.161320
0.578641 0.527433 0.163251
0.592750 0.528609 0.165243
0.606294 0.529855 0.167292
0.619311 0.531172 0.169394
0.631836 0.532560 0.171548
0.643903 0.534018 0.173750
0.655539 0.535545 0.175997
0.666773 0.537142 0.178286
0.677630 0.538806 0.180617
0.688131 0.540538 0.182985
0.697957 0.542272 0.185307
0.320848 0.538494 0.151137
0.324143 0.538563 0.151323
0.327401 0.538633 0.151509
0.331149 0.538715 0.151725
0.337219 0.538849 0.152080
0.343608 0.538993 0.152458
0.351298 0.539171 0.152922
0.360285 0.539385 0.153475
0.370508 0.539636 0.154117
0.381896 0.539927 0.154849
0.394369 0.540258 0.155671
0.407847 0.540630 0.156582
0.422248 0.541047 0.157580
0.437492 0.541508 0.158665
0.453502 0.542017 0.159834
0.470209 0.542574 0.161085
0.487544 0.543181 0.162416
0.505012 0.543841 0.163824
0.521771 0.544554 0.165308
0.537841 0.545322 0.166863
0.553260 0.546147 0.168488
0.568066 0.547029 0.170180
0.582296 0.547971 0.171935
0.595985 0.548972 0.173751
0.609164 0.550034 0.175626
0.621864 0.551157 0.177556
0.634114 0.552342 0.179539
0.645939 0.553588 0.181573
0.657364 0.554896 0.183656
0.668413 0.556266 0.185784
0.679105 0.557696 0.187955
0.689462 0.559186 0.190168
0.699165 0.560682 0.192344
0.336441 0.558835 0.161686
0.339523 0.558896 0.161851
0.342574 0.558956 0.162015
0.346089 0.559027 0.162205
0.351792 0.559144 0.162518
0.357808 0.559269 0.162852
0.365066 0.559423 0.163262
0.373570 0.559609 0.163751
0.383271 0.559827 0.164320
0.394109 0.560079 0.164970
0.406014 0.560365 0.165701
0.418916 0.560688 0.166513
0.432741 0.561048 0.167405
0.447416 0.561447 0.168375
0.462869 0.561887 0.169424
0.479035 0.562368 0.170550
0.495794 0.562892 0.171750
0.512256 0.563460 0.173024
0.528134 0.564074 0.174368
0.543445 0.564736 0.175782
0.558209 0.565446 0.177263
0.572449 0.566206 0.178809
0.586186 0.567017 0.180418
0.599446 0.567879 0.182087
0.612251 0.568795 0.183815
0.624623 0.569763 0.185598
0.636585 0.570785 0.187435
0.648157 0.571862 0.189324
0.659360 0.572993 0.191262
0.670211 0.574178 0.193248
0.680730 0.575418 0.195279
0.690932 0.576712 0.197354
0.700502 0.578012 0.199398
0.351911 0.577651 0.171680
0.354805 0.577704 0.171827
0.357674 0.577757 0.171974
0.360981 0.577819 0.172144
0.366357 0.577921 0.172425
0.372038 0.578031 0.172725
0.378907 0.578166 0.173093
0.386972 0.578329 0.173532
0.396194 0.578520 0.174044
0.406524 0.578741 0.174630
0.417901 0.578992 0.175289
0.430263 0.579274 0.176022
0.443543 0.579589 0.176829
0.457675 0.579938 0.177709
0.472594 0.580322 0.178661
0.488237 0.580741 0.179685
0.504158 0.581199 0.180778
0.519646 0.581694 0.181941
0.534677 0.582229 0.183172
0.549250 0.582805 0.184468
0.563370 0.583424 0.185829
0.577046 0.584085 0.187253
0.590291 0.584790 0.188738
0.603117 0.585541 0.190282
0.615541 0.586337 0.191883
0.627578 0.587181 0.193539
0.639243 0.588071 0.195249
0.650552 0.589009 0.197011
0.661522 0.589996 0.198823
0.672167 0.591030 0.200683
0.682501 0.592114 0.202590
0.692540 0.593245 0.204541
0.701969 0.594384 0.206466
0.367279 0.595175 0.181252
0.370007 0.595222 0.181385
0.372712 0.595270 0.181518
0.375835 0.595324 0.181673
0.380917 0.595415 0.181928
0.386296 0.595512 0.182200
0.392810 0.595632 0.182534
0.400475 0.595775 0.182934
0.409258 0.595944 0.183400
0.419118 0.596139 0.183933
0.430004 0.596361 0.184534
0.441859 0.596611 0.185203
0.454625 0.596889 0.185940
0.468241 0.597196 0.186746
0.482648 0.597535 0.187618
0.497684 0.597904 0.188557
0.512575 0.598307 0.189563
0.527143 0.598743 0.190633
0.541364 0.599213 0.191768
0.555223 0.599720 0.192965
0.568714 0.600263 0.194224
0.581835 0.600844 0.195543
0.594589 0.601463 0.196922
0.606981 0.602122 0.198357
0.619020 0.602821 0.199849
0.630715 0.603562 0.201395
0.642077 0.604344 0.202994
0.653116 0.605168 0.204644
0.663845 0.606035 0.206344
0.674275 0.606945 0.208092
0.684418 0.607899 0.209887
0.694284 0.608896 0.211727
0.703564 0.609900 0.213545
0.382563 0.611592 0.190494
0.385141 0.611634 0.190616
0.387700 0.611676 0.190738
0.390656 0.611725 0.190880
0.395473 0.611805 0.191113
0.400578 0.611892 0.191363
0.406770 0.611998 0.191669
0.414068 0.612127 0.192036
0.422448 0.612277 0.192464
0.431872 0.612451 0.192954
0.442299 0.612648 0.193506
0.453679 0.612870 0.194122
0.465960 0.613118 0.194801
0.479087 0.613391 0.195544
0.492993 0.613692 0.196349
0.507086 0.614020 0.197217
0.521008 0.614378 0.198148
0.534711 0.614764 0.199139
0.548162 0.615182 0.200192
0.561335 0.615630 0.201305
0.574215 0.616111 0.202476
0.586792 0.616626 0.203705
0.599060 0.617174 0.204991
0.611020 0.617757 0.206333
0.622674 0.618376 0.207728
0.634024 0.619031 0.209177
0.645078 0.619723 0.210678
0.655841 0.620452 0.212229
0.666323 0.621220 0.213829
0.676531 0.622026 0.215477
0.686475 0.622871 0.217171
0.696162 0.623754 0.218911
0.705285 0.624645 0.220633
0.397774 0.627045 0.199472
0.400218 0.627083 0.199584
0.402645 0.627120 0.199697
0.405451 0.627164 0.199828
0.410027 0.627236 0.200043
0.414883 0.627314 0.200274
0.420781 0.627410 0.200557
0.427742 0.627525 0.200896
0.435748 0.627660 0.201292
0.444769 0.627816 0.201745
0.454768 0.627993 0.202257
0.465703 0.628192 0.202827
0.477525 0.628413 0.203457
0.490187 0.628658 0.204146
0.503301 0.628927 0.204895
0.516403 0.629221 0.205702
0.529428 0.629540 0.206568
0.542321 0.629886 0.207492
0.555041 0.630258 0.208474
0.567557 0.630659 0.209513
0.579846 0.631088 0.210608
0.591893 0.631547 0.211758
0.603685 0.632035 0.212963
0.615218 0.632555 0.214222
0.626486 0.633106 0.215533
0.637491 0.633690 0.216896
0.648234 0.634306 0.218309
0.658718 0.634956 0.219772
0.668948 0.635640 0.221283
0.678929 0.636358 0.222841
0.688667 0.637111 0.224444
0.698170 0.637899 0.226093
0.707131 0.638694 0.227727
0.412925 0.641652 0.208233
0.415246 0.641686 0.208338
0.417554 0.641720 0.208442
0.420223 0.641760 0.208564
0.424580 0.641825 0.208764
0.429208 0.641895 0.208978
0.434836 0.641981 0.209242
0.441487 0.642085 0.209557
0.449148 0.642207 0.209925
0.457795 0.642347 0.210347
0.467394 0.642507 0.210824
0.477910 0.642686 0.211356
0.489300 0.642886 0.211943
0.501284 0.643107 0.212586
0.513418 0.643349 0.213285
0.525616 0.643613 0.214039
0.537811 0.643900 0.214849
0.549946 0.644211 0.215715
0.561976 0.644546 0.216635
0.573865 0.644906 0.217609
0.585586 0.645291 0.218637
0.597118 0.645703 0.219718
0.608445 0.646141 0.220852
0.619556 0.646607 0.222037
0.630444 0.647101 0.223273
0.641104 0.647624 0.224559
0.651535 0.648176 0.225895
0.661738 0.648759 0.227278
0.671712 0.649372 0.228708
0.681462 0.650015 0.230185
0.690991 0.650690 0.231706
0.700303 0.651397 0.233272
0.709097 0.652110 0.234826
0.428023 0.655509 0.216815
0.430234 0.655540 0.216913
0.432432 0.655571 0.217010
0.434977 0.655606 0.217124
0.439133 0.655666 0.217311
0.443553 0.655729 0.217511
0.448932 0.655808 0.217757
0.455297 0.655902 0.218052
0.462638 0.656012 0.218396
0.470935 0.656139 0.218791
0.480162 0.656284 0.219238
0.490284 0.656447 0.219736
0.501040 0.656628 0.220286
0.512088 0.656828 0.220889
0.523337 0.657047 0.221544
0.534709 0.657286 0.222253
0.546137 0.657546 0.223014
0.557564 0.657827 0.223827
0.568943 0.658129 0.224693
0.580236 0.658454 0.225610
0.591412 0.658802 0.226579
0.602447 0.659174 0.227599
0.613320 0.659569 0.228669
0.624019 0.659989 0.229788
0.634531 0.660435 0.230957
