Android/app/src/main/assets/LUTs/11SN_STD5HLG_NLE_V1_1.cube
TITLE "11SN_STD5HLG_NLE_V1_1.cube"
# Input color space: BT.709/SDR
# Output color space: BT.2020/HLG
# NLE style
# Creation: July 01, 2024
LUT_3D_SIZE 5
0.000000 0.000000 0.000000
0.219252 0.020180 0.007764
0.416434 0.080021 0.013753
0.587768 0.153248 0.033888
0.700869 0.215969 0.063679
0.115007 0.249956 0.024286
0.249465 0.254780 0.029463
0.424007 0.268432 0.042051
0.590259 0.292570 0.062689
0.701880 0.325342 0.090761
0.250589 0.462326 0.092719
0.326015 0.464575 0.097028
0.461579 0.470365 0.106561
0.603978 0.481024 0.120524
0.707313 0.497450 0.137693
0.372270 0.632838 0.163241
0.423199 0.633758 0.165489
0.526258 0.636029 0.170755
0.632190 0.640004 0.179129
0.720636 0.646009 0.190365
0.491152 0.742156 0.225698
0.527521 0.742632 0.227227
0.594025 0.743793 0.230864
0.669486 0.745787 0.236786
0.750010 0.757169 0.250906
0.013756 0.007034 0.303513
0.222461 0.023756 0.273289
0.417789 0.083635 0.251259
0.588462 0.155204 0.243274
0.701229 0.217260 0.243832
0.127516 0.249559 0.258561
0.254806 0.254806 0.254806
0.426441 0.268896 0.250023
0.591254 0.293208 0.248352
0.702343 0.326002 0.250947
0.255945 0.462135 0.259722
0.330040 0.464451 0.259981
0.464190 0.470369 0.260913
0.605158 0.481163 0.263306
0.707891 0.497688 0.267881
0.375667 0.632769 0.283223
0.426160 0.633701 0.284052
0.528343 0.635999 0.286079
0.633273 0.640010 0.289570
0.721242 0.646052 0.294766
0.493612 0.742123 0.318235
0.529575 0.742602 0.319108
0.595420 0.743771 0.321211
0.670371 0.745778 0.324720
0.751777 0.758376 0.338598
0.050979 0.011464 0.556542
0.231645 0.032762 0.534990
0.420412 0.092024 0.502467
0.589761 0.159629 0.477173
0.701944 0.220240 0.461656
0.152807 0.248564 0.508266
0.266653 0.254704 0.499751
0.431849 0.269813 0.484997
0.593420 0.294601 0.470841
0.703342 0.327492 0.460447
0.268256 0.461535 0.476369
0.339373 0.464017 0.474373
0.470259 0.470259 0.470259
0.607867 0.481397 0.465299
0.709212 0.498184 0.461083
0.383672 0.632545 0.470737
0.433148 0.633510 0.470357
0.533206 0.635879 0.469571
0.635810 0.639985 0.468679
0.722660 0.646122 0.468211
0.499466 0.742018 0.480925
0.534407 0.742506 0.481073
0.598715 0.743697 0.481463
0.672467 0.745735 0.482226
0.755809 0.761072 0.499501
0.113821 0.023312 0.712331
0.250709 0.048173 0.702589
0.426597 0.104985 0.684451
0.592173 0.166641 0.666127
0.703116 0.225043 0.651134
0.186584 0.248582 0.687293
0.285159 0.255494 0.681792
0.440879 0.271603 0.671099
0.596987 0.296919 0.658704
0.704952 0.329910 0.647274
0.287377 0.460636 0.660335
0.354180 0.463362 0.658274
0.480058 0.470084 0.653775
0.612213 0.481751 0.647634
0.711336 0.498954 0.641080
0.396572 0.632135 0.645209
0.444461 0.633153 0.644405
0.540950 0.635639 0.642580
0.639904 0.639904 0.639904
0.724958 0.646204 0.636811
0.508894 0.741816 0.640038
0.542146 0.742319 0.639754
0.604045 0.743546 0.639102
0.676553 0.746282 0.638833
0.762370 0.765430 0.655142
0.172670 0.045579 0.815821
0.277662 0.069796 0.810286
0.437901 0.120761 0.798780
0.596358 0.176112 0.785315
0.704972 0.231693 0.772686
0.225153 0.250820 0.800556
0.309629 0.258120 0.796747
0.454046 0.274793 0.788853
0.602256 0.300404 0.778814
0.707314 0.333371 0.768628
0.312354 0.459838 0.779357
0.374083 0.462830 0.777541
0.493636 0.470089 0.773496
0.618236 0.482370 0.767735
0.714317 0.500079 0.761189
0.414187 0.631587 0.763311
0.460025 0.632675 0.762446
0.551379 0.635317 0.760452
0.645548 0.639792 0.757428
0.728159 0.646309 0.753716
0.521511 0.741513 0.753559
0.552608 0.742039 0.753139
0.611355 0.743317 0.752158
0.685608 0.750266 0.755392
0.772939 0.772939 0.772939
