Android/app/src/main/assets/LUTs/11SN_STD5HLG_NLE_V1_1.cube
TITLE "11SN_STD5HLG_NLE_V1_1.cube"
# Input color space: BT.709/SDR
# Output color space: BT.2020/HLG
# NLE style
# Creation: July 01, 2024
LUT_3D_SIZE 33
0.000000 0.000000 0.000000
0.017425 0.005783 0.002817
0.039340 0.008409 0.004096
0.067330 0.009788 0.004767
0.098083 0.011019 0.005367
0.131821 0.012202 0.005943
0.163238 0.013458 0.006541
0.192020 0.016031 0.007151
0.219252 0.020180 0.007764
0.245478 0.025432 0.008374
0.271002 0.031504 0.008982
0.296009 0.038245 0.009585
0.320620 0.045574 0.010184
0.344918 0.053443 0.010779
0.368960 0.061821 0.011398
0.392788 0.070686 0.012372
0.416434 0.080021 0.013753
0.439920 0.089811 0.015482
0.463281 0.099888 0.017502
0.486591 0.109546 0.019769
0.509697 0.118805 0.022249
0.531306 0.127751 0.024917
0.551378 0.136445 0.027755
0.570139 0.144932 0.030748
0.587768 0.153248 0.033888
0.604407 0.161420 0.037168
0.620172 0.169469 0.040582
0.635160 0.177413 0.044125
0.649451 0.185266 0.047794
0.663113 0.193038 0.051586
0.676205 0.200741 0.055499
0.688776 0.208382 0.059530
0.700869 0.215969 0.063679
0.011392 0.019253 0.005889
0.019356 0.019899 0.006256
0.045999 0.020627 0.006539
0.073884 0.021732 0.006738
0.104270 0.023570 0.006998
0.137065 0.026171 0.007321
0.167121 0.029619 0.007729
0.195016 0.033805 0.008189
0.221615 0.038649 0.008680
0.247357 0.044099 0.009191
0.272496 0.050123 0.009715
0.297187 0.056694 0.010248
0.321532 0.063791 0.010786
0.345603 0.071398 0.011335
0.369448 0.079500 0.012153
0.393104 0.088083 0.013361
0.416599 0.097125 0.014911
0.440002 0.106094 0.016757
0.463354 0.114757 0.018855
0.486664 0.123179 0.021173
0.509767 0.131406 0.023684
0.531371 0.139475 0.026369
0.551438 0.147413 0.029216
0.570194 0.155239 0.032212
0.587818 0.162972 0.035351
0.604453 0.170625 0.038627
0.620215 0.178209 0.042035
0.635200 0.185732 0.045570
0.649489 0.193202 0.049231
0.663148 0.200627 0.053014
0.676238 0.208010 0.056918
0.688806 0.215358 0.060940
0.700898 0.222673 0.065079
0.016001 0.054891 0.008140
0.028117 0.056098 0.008316
0.055511 0.057791 0.008539
0.082652 0.059216 0.008701
0.112647 0.060850 0.008864
0.143585 0.063024 0.009070
0.171892 0.065968 0.009345
0.198648 0.069606 0.009672
0.224423 0.073884 0.010040
0.249529 0.078764 0.010438
0.274155 0.084220 0.010862
0.298420 0.090229 0.011304
0.322404 0.096773 0.011870
0.346175 0.103727 0.012767
0.369813 0.110690 0.013983
0.393351 0.117631 0.015489
0.416810 0.124555 0.017252
0.440205 0.131466 0.019242
0.463549 0.138366 0.021436
0.486851 0.145258 0.023814
0.509941 0.152144 0.026362
0.531526 0.159024 0.029067
0.551577 0.165900 0.031921
0.570319 0.172773 0.034918
0.587932 0.179644 0.038052
0.604557 0.186513 0.041318
0.620310 0.193381 0.044713
0.635287 0.200248 0.048235
0.649569 0.207115 0.051880
0.663222 0.213981 0.055646
0.676306 0.220848 0.059533
0.688870 0.227715 0.063537
0.700957 0.234583 0.067658
0.025525 0.090581 0.009491
0.039306 0.091650 0.009616
0.065432 0.093326 0.009807
0.091327 0.094777 0.009964
0.120251 0.096336 0.010121
0.148588 0.098365 0.010311
0.175342 0.100995 0.010545
0.201096 0.104227 0.010818
0.226173 0.108007 0.011125
0.250789 0.112141 0.011464
0.275072 0.116573 0.011898
0.299106 0.121261 0.012593
0.322952 0.126174 0.013555
0.346652 0.131281 0.014775
0.370238 0.136558 0.016236
0.393733 0.141984 0.017919
0.417156 0.147540 0.019806
0.440521 0.153211 0.021881
0.463840 0.158984 0.024130
0.487121 0.164847 0.026542
0.510183 0.170791 0.029108
0.531735 0.176806 0.031822
0.551760 0.182886 0.034677
0.570481 0.189024 0.037668
0.588076 0.195215 0.040793
0.604686 0.201452 0.044048
0.620426 0.207733 0.047429
0.635392 0.214053 0.050935
0.649664 0.220409 0.054564
0.663310 0.226798 0.058313
0.676386 0.233217 0.062182
0.688944 0.239664 0.066168
0.701025 0.246136 0.070271
0.039016 0.128127 0.010719
0.052516 0.128958 0.010819
0.077362 0.130281 0.010982
0.102067 0.131404 0.011126
0.128591 0.132602 0.011280
0.154326 0.134104 0.011464
0.179450 0.135937 0.011679
0.204142 0.138109 0.011955
0.228511 0.140615 0.012395
0.252632 0.143445 0.013024
0.276557 0.146580 0.013853
0.300328 0.150000 0.014886
0.323975 0.153686 0.016121
0.347522 0.157617 0.017552
0.370988 0.161771 0.019170
0.394388 0.166130 0.020966
0.417735 0.170676 0.022931
0.441037 0.175394 0.025059
0.464304 0.180266 0.027341
0.487541 0.185281 0.029772
0.510552 0.190425 0.032346
0.532049 0.195688 0.035060
0.552030 0.201058 0.037909
0.570716 0.206528 0.040890
0.588282 0.212088 0.044002
0.604868 0.217731 0.047241
0.620589 0.223450 0.050605
0.635538 0.229240 0.054092
0.649796 0.235095 0.057702
0.663429 0.241009 0.061431
0.676495 0.246979 0.065279
0.689043 0.253000 0.069244
0.701116 0.259068 0.073325
0.055189 0.161888 0.011996
0.068218 0.162441 0.012087
0.092028 0.163316 0.012270
0.115299 0.164066 0.012474
0.138489 0.164949 0.012748
0.161819 0.166044 0.013120
0.185227 0.167372 0.013607
0.208667 0.168950 0.014225
0.232108 0.170788 0.014986
0.255532 0.172890 0.015900
0.278928 0.175256 0.016972
0.302291 0.177881 0.018205
0.325620 0.180755 0.019599
0.348917 0.183870 0.021151
0.372184 0.187213 0.022859
0.395425 0.190772 0.024719
0.418641 0.194535 0.026729
0.441836 0.198488 0.028884
0.465014 0.202619 0.031181
0.488177 0.206917 0.033617
0.511105 0.211370 0.036189
0.532514 0.215967 0.038895
0.552426 0.220699 0.041732
0.571057 0.225556 0.044698
0.588578 0.230528 0.047791
0.605128 0.235609 0.051010
0.620818 0.240791 0.054353
0.635741 0.246066 0.057818
0.649978 0.251428 0.061404
0.663592 0.256872 0.065110
0.676642 0.262391 0.068933
0.689177 0.267981 0.072874
0.701238 0.273638 0.076931
0.073592 0.192693 0.014492
0.086153 0.193074 0.014688
0.108856 0.193678 0.015052
0.128998 0.194269 0.015432
0.149419 0.194980 0.015893
0.170609 0.195849 0.016458
0.192346 0.196894 0.017135
0.214474 0.198130 0.017933
0.236879 0.199569 0.018858
0.259481 0.201222 0.019915
0.282222 0.203093 0.021109
0.305060 0.205185 0.022441
0.327968 0.207498 0.023912
0.350923 0.210030 0.025524
0.373911 0.212774 0.027275
0.396923 0.215726 0.029164
0.419950 0.218877 0.031191
0.442989 0.222220 0.033354
0.466036 0.225745 0.035651
0.489089 0.229445 0.038081
0.511889 0.233309 0.040642
0.533171 0.237330 0.043333
0.552982 0.241498 0.046151
0.571533 0.245806 0.049097
0.588989 0.250245 0.052168
0.605485 0.254809 0.055363
0.621131 0.259488 0.058680
0.636019 0.264278 0.062119
0.650224 0.269171 0.065678
0.663812 0.274161 0.069357
0.676840 0.279242 0.073153
0.689355 0.284410 0.077066
0.701400 0.289658 0.081095
0.094011 0.221836 0.018785
0.105943 0.222102 0.019025
0.125481 0.222589 0.019471
0.142862 0.223090 0.019928
0.161047 0.223687 0.020469
0.180364 0.224411 0.021116
0.200541 0.225275 0.021875
0.221373 0.226291 0.022750
0.242705 0.227471 0.023745
0.264418 0.228823 0.024863
0.286423 0.230357 0.026108
0.308653 0.232078 0.027482
0.331054 0.233990 0.028985
0.353588 0.236093 0.030618
0.376226 0.238388 0.032383
0.398944 0.240873 0.034278
0.421724 0.243545 0.036304
0.444555 0.246399 0.038461
0.467425 0.249430 0.040747
0.490328 0.252633 0.043162
0.512952 0.256001 0.045704
0.534059 0.259527 0.048374
0.553733 0.263206 0.051169
0.572174 0.267030 0.054090
0.589541 0.270993 0.057134
0.605964 0.275088 0.060301
0.621550 0.279309 0.063590
0.636387 0.283650 0.067000
0.650550 0.288105 0.070529
0.664103 0.292667 0.074177
0.677100 0.297332 0.077942
0.689589 0.302094 0.081825
0.701611 0.306949 0.085769
0.115007 0.249956 0.024286
0.124901 0.250185 0.024544
0.141547 0.250608 0.025020
0.156829 0.251043 0.025505
0.173178 0.251559 0.026075
0.190862 0.252181 0.026753
0.209609 0.252919 0.027541
0.229201 0.253782 0.028444
0.249465 0.254780 0.029463
0.270264 0.255922 0.030602
0.291488 0.257215 0.031863
0.313051 0.258667 0.033247
0.334885 0.260282 0.034755
0.356936 0.262065 0.036390
0.379161 0.264017 0.038150
0.401527 0.266140 0.040037
0.424007 0.268432 0.042051
0.446580 0.270894 0.044192
0.469229 0.273522 0.046459
0.491941 0.276313 0.048853
0.514332 0.279264 0.051371
0.535215 0.282370 0.054015
0.554710 0.285626 0.056783
0.573008 0.289028 0.059675
0.590259 0.292570 0.062689
0.606586 0.296248 0.065825
0.622093 0.300055 0.069083
0.636864 0.303987 0.072460
0.650971 0.308039 0.075956
0.664476 0.312205 0.079571
0.677433 0.316481 0.083303
0.689888 0.320861 0.087055
0.701880 0.325342 0.090761
0.134262 0.277452 0.030675
0.142709 0.277654 0.030938
0.157241 0.278029 0.031423
0.170867 0.278413 0.031915
0.185687 0.278867 0.032493
0.201945 0.279414 0.033178
0.219393 0.280058 0.033973
0.237820 0.280809 0.034880
0.257048 0.281674 0.035903
0.276934 0.282661 0.037042
0.297356 0.283776 0.038301
0.318219 0.285026 0.039680
0.339443 0.286417 0.041180
0.360964 0.287954 0.042804
0.382728 0.289639 0.044550
0.404694 0.291477 0.046421
0.426826 0.293468 0.048416
0.449097 0.295613 0.050534
0.471483 0.297911 0.052778
0.493965 0.300362 0.055145
0.516060 0.302963 0.057636
0.536667 0.305711 0.060251
0.555942 0.308605 0.062989
0.574061 0.311641 0.065848
0.591165 0.314815 0.068830
0.607373 0.318123 0.071933
0.622779 0.321561 0.075156
0.637466 0.325125 0.078498
0.651502 0.328810 0.081960
0.664948 0.332614 0.085509
0.677853 0.336530 0.089038
0.690264 0.340556 0.092540
0.702219 0.344687 0.096018
0.152377 0.304512 0.037794
0.159768 0.304693 0.038056
0.172673 0.305029 0.038540
0.184958 0.305373 0.039031
0.198488 0.305779 0.039607
0.213498 0.306266 0.040290
0.229772 0.306839 0.041080
0.247113 0.307504 0.041983
0.265352 0.308267 0.042998
0.284343 0.309134 0.044129
0.303963 0.310113 0.045377
0.324111 0.311208 0.046743
0.344699 0.312425 0.048228
0.365657 0.313770 0.049834
0.386924 0.315246 0.051561
0.408450 0.316857 0.053410
0.430195 0.318605 0.055381
0.452125 0.320492 0.057475
0.474210 0.322519 0.059691
0.496427 0.324687 0.062030
0.518156 0.326994 0.064490
0.538436 0.329440 0.067074
0.557448 0.332024 0.069778
0.575353 0.334743 0.072605
0.592281 0.337596 0.075552
0.608342 0.340579 0.078619
0.623626 0.343689 0.081806
0.638210 0.346924 0.085098
0.652159 0.350280 0.088398
0.665530 0.353754 0.091688
0.678373 0.357342 0.094968
0.690729 0.361042 0.098240
0.702637 0.364848 0.101503
0.169728 0.331254 0.045561
0.176307 0.331419 0.045821
0.187916 0.331723 0.046300
0.199091 0.332034 0.046786
0.211519 0.332401 0.047356
0.225433 0.332840 0.048031
0.240646 0.333356 0.048813
0.256983 0.333952 0.049705
0.274285 0.334635 0.050709
0.292413 0.335409 0.051827
0.311244 0.336280 0.053059
0.330674 0.337253 0.054408
0.350615 0.338333 0.055875
0.370989 0.339525 0.057460
0.391732 0.340833 0.059165
0.412790 0.342261 0.060989
0.434117 0.343812 0.062934
0.455673 0.345487 0.065000
0.477425 0.347290 0.067187
0.499345 0.349222 0.069495
0.520631 0.351282 0.071924
0.540538 0.353472 0.074474
0.559246 0.355790 0.077145
0.576900 0.358237 0.079936
0.593621 0.360810 0.082847
0.609509 0.363508 0.085855
0.624648 0.366329 0.088880
0.639110 0.369271 0.091915
0.652955 0.372332 0.094956
0.666237 0.375509 0.098005
0.679003 0.378800 0.101060
0.691294 0.382201 0.104120
0.703144 0.385710 0.107185
0.186537 0.357760 0.053931
0.192469 0.357910 0.054187
0.203017 0.358188 0.054660
0.213259 0.358472 0.055139
0.224735 0.358807 0.055701
0.237682 0.359206 0.056367
0.251938 0.359675 0.057139
0.267350 0.360216 0.058018
0.283772 0.360833 0.059008
0.301073 0.361532 0.060110
0.319135 0.362317 0.061326
0.337857 0.363191 0.062656
0.357147 0.364161 0.064102
0.376927 0.365229 0.065664
0.397131 0.366400 0.067345
0.417700 0.367679 0.069144
0.438584 0.369067 0.071062
0.459740 0.370568 0.073099
0.481131 0.372185 0.075256
0.502714 0.373918 0.077532
0.523488 0.375770 0.079928
0.542977 0.377741 0.082444
0.561343 0.379833 0.085076
0.578714 0.382043 0.087763
0.595199 0.384374 0.090481
0.610888 0.386823 0.093226
0.625859 0.389390 0.095996
0.640178 0.392073 0.098789
0.653902 0.394871 0.101603
0.667079 0.397782 0.104436
0.679755 0.400803 0.107287
0.691967 0.403934 0.110154
0.703750 0.407170 0.113036
0.202945 0.384084 0.062876
0.208347 0.384222 0.063128
0.218010 0.384478 0.063593
0.227455 0.384739 0.064065
0.238105 0.385046 0.064619
0.250193 0.385413 0.065274
0.263584 0.385842 0.066034
0.278144 0.386337 0.066900
0.293742 0.386901 0.067875
0.310258 0.387538 0.068961
0.327579 0.388251 0.070158
0.345607 0.389045 0.071468
0.364252 0.389923 0.072893
0.383437 0.390890 0.074432
0.403093 0.391949 0.076088
0.423158 0.393104 0.077861
0.443582 0.394357 0.079751
0.464319 0.395713 0.081758
0.485328 0.397173 0.083884
0.506500 0.398740 0.086118
0.526720 0.400415 0.088412
0.545755 0.402200 0.090757
0.563744 0.404097 0.093149
0.580801 0.406104 0.095585
0.597021 0.408224 0.098062
0.612487 0.410456 0.100577
0.627268 0.412799 0.103127
0.641425 0.415253 0.105709
0.655009 0.417817 0.108321
0.668066 0.420489 0.110961
0.680638 0.423268 0.113627
0.692759 0.426154 0.116318
0.704463 0.429143 0.119031
0.219048 0.410268 0.072374
0.224008 0.410396 0.072622
0.232919 0.410632 0.073080
0.241676 0.410874 0.073544
0.251601 0.411158 0.074089
0.262923 0.411497 0.074734
0.275532 0.411892 0.075482
0.289309 0.412348 0.076335
0.304139 0.412867 0.077294
0.319911 0.413451 0.078363
0.336522 0.414105 0.079541
0.353877 0.414831 0.080831
0.371889 0.415634 0.082234
0.390482 0.416516 0.083751
0.409586 0.417481 0.085381
0.429142 0.418532 0.087107
0.449095 0.419673 0.088908
0.469397 0.420907 0.090782
0.490008 0.422235 0.092724
0.510684 0.423660 0.094729
0.530317 0.425185 0.096795
0.548866 0.426811 0.098918
0.566447 0.428540 0.101094
0.583162 0.430372 0.103320
0.599093 0.432309 0.105592
0.614312 0.434350 0.107909
0.628882 0.436496 0.110267
0.642857 0.438748 0.112663
0.656284 0.441103 0.115096
0.669206 0.443562 0.117564
0.681659 0.446125 0.120063
0.693677 0.448789 0.122592
0.705291 0.451554 0.125150
0.234913 0.436341 0.082411
0.239496 0.436460 0.082655
0.247762 0.436680 0.083105
0.255919 0.436904 0.083562
0.265203 0.437168 0.084097
0.275841 0.437483 0.084732
0.287739 0.437850 0.085468
0.300796 0.438272 0.086305
0.314911 0.438752 0.087238
0.329982 0.439292 0.088265
0.345915 0.439896 0.089383
0.362620 0.440565 0.090591
0.380015 0.441304 0.091885
0.398025 0.442115 0.093264
0.416582 0.443001 0.094723
0.435625 0.443965 0.096260
0.455101 0.445011 0.097872
0.474961 0.446140 0.099555
0.495161 0.447356 0.101307
0.515241 0.448661 0.103124
0.534262 0.450057 0.105002
0.552297 0.451546 0.106940
0.569447 0.453130 0.108934
0.585795 0.454810 0.110980
0.601413 0.456586 0.113077
0.616364 0.458461 0.115222
0.630703 0.460434 0.117412
0.644478 0.462506 0.119645
0.657732 0.464676 0.121918
0.670503 0.466946 0.124230
0.682824 0.469313 0.126578
0.694727 0.471779 0.128961
0.706239 0.474341 0.131376
0.250589 0.462326 0.092719
0.254848 0.462438 0.092941
0.262552 0.462643 0.093349
0.270183 0.462853 0.093762
0.278897 0.463099 0.094243
0.288919 0.463393 0.094810
0.300171 0.463735 0.095463
0.312566 0.464129 0.096203
0.326015 0.464575 0.097028
0.340428 0.465078 0.097938
0.355716 0.465638 0.098932
0.371797 0.466259 0.100009
0.388593 0.466943 0.101166
0.406033 0.467693 0.102402
0.424049 0.468511 0.103714
0.442582 0.469401 0.105102
0.461579 0.470365 0.106561
0.480990 0.471406 0.108089
0.500770 0.472526 0.109685
0.520142 0.473727 0.111345
0.538532 0.475012 0.113067
0.556035 0.476383 0.114848
0.572732 0.477840 0.116686
0.588692 0.479387 0.118579
0.603978 0.481024 0.120524
0.618642 0.482752 0.122518
0.632732 0.484573 0.124560
0.646291 0.486486 0.126648
0.659356 0.488492 0.128778
0.671962 0.490592 0.130950
0.684139 0.492785 0.133161
0.695914 0.495071 0.135409
0.707313 0.497450 0.137693
0.266114 0.488244 0.102532
0.270091 0.488348 0.102730
0.277302 0.488541 0.103093
0.284465 0.488737 0.103461
0.292671 0.488969 0.103891
0.302137 0.489244 0.104398
0.312800 0.489565 0.104982
0.324585 0.489933 0.105645
0.337415 0.490350 0.106385
0.351208 0.490820 0.107204
0.365885 0.491342 0.108100
0.381369 0.491921 0.109072
0.397588 0.492558 0.110120
0.414471 0.493255 0.111241
0.431956 0.494016 0.112434
0.449985 0.494842 0.113698
0.468504 0.495735 0.115031
0.487464 0.496699 0.116431
0.506739 0.497736 0.117896
0.525356 0.498847 0.119424
0.543105 0.500036 0.121013
0.560061 0.501300 0.122661
0.576289 0.502639 0.124365
0.591845 0.504052 0.126124
0.606781 0.505541 0.127936
0.621142 0.507104 0.129798
0.634968 0.508742 0.131709
0.648295 0.510455 0.133666
0.661158 0.512241 0.135669
0.673585 0.514100 0.137714
0.685605 0.516030 0.139801
0.697241 0.518030 0.141926
0.708516 0.520098 0.144090
0.281515 0.513763 0.111922
0.285243 0.513856 0.112101
0.292018 0.514029 0.112429
0.298766 0.514205 0.112761
0.306514 0.514411 0.113150
0.315476 0.514657 0.113609
0.325600 0.514943 0.114138
0.336823 0.515271 0.114739
0.349077 0.515642 0.115412
0.362289 0.516058 0.116157
0.376387 0.516520 0.116973
0.391302 0.517030 0.117860
0.406964 0.517590 0.118817
0.423308 0.518201 0.119843
0.440274 0.518866 0.120938
0.457806 0.519585 0.122099
0.475851 0.520360 0.123327
0.494362 0.521193 0.124618
0.512988 0.522086 0.125972
0.530850 0.523040 0.127387
0.547954 0.524055 0.128861
0.564355 0.525134 0.130393
0.580102 0.526276 0.131981
0.595242 0.527484 0.133623
0.609815 0.528757 0.135317
0.623858 0.530095 0.137062
0.637406 0.531499 0.138856
0.650489 0.532969 0.140698
0.663136 0.534504 0.142585
0.675373 0.536104 0.144515
0.687223 0.537768 0.146489
0.698710 0.539496 0.148502
0.709852 0.541286 0.150556
0.296814 0.537337 0.120986
0.300322 0.537418 0.121149
0.306709 0.537568 0.121448
0.313082 0.537721 0.121752
0.320417 0.537901 0.122107
0.328922 0.538114 0.122526
0.338552 0.538362 0.123010
0.349256 0.538647 0.123561
0.360973 0.538969 0.124178
0.373640 0.539330 0.124861
0.387191 0.539731 0.125611
0.401562 0.540173 0.126426
0.416690 0.540658 0.127308
0.432514 0.541187 0.128255
0.448975 0.541761 0.129266
0.466020 0.542383 0.130341
0.483598 0.543053 0.131478
0.501657 0.543772 0.132676
0.519476 0.544543 0.133934
0.536594 0.545366 0.135252
0.553054 0.546243 0.136626
0.568895 0.547175 0.138057
0.584155 0.548162 0.139543
0.598869 0.549205 0.141081
0.613068 0.550305 0.142672
0.626783 0.551463 0.144312
0.640041 0.552679 0.146002
0.652868 0.553953 0.147739
0.665288 0.555285 0.149521
0.677323 0.556675 0.151348
0.688995 0.558123 0.153218
0.700321 0.559628 0.155129
0.711321 0.561190 0.157080
0.312028 0.559094 0.129791
0.315340 0.559165 0.129940
0.321378 0.559297 0.130216
0.327414 0.559431 0.130495
0.334374 0.559589 0.130822
0.342461 0.559777 0.131209
0.351638 0.559995 0.131655
0.361861 0.560244 0.132163
0.373078 0.560527 0.132733
0.385233 0.560843 0.133364
0.398268 0.561195 0.134058
0.412122 0.561582 0.134814
0.426738 0.562006 0.135631
0.442060 0.562469 0.136510
0.458031 0.562972 0.137449
0.474601 0.563515 0.138449
0.491720 0.564100 0.139508
0.509191 0.564729 0.140626
0.526169 0.565401 0.141801
0.542556 0.566120 0.143033
0.558378 0.566885 0.144321
0.573660 0.567697 0.145662
0.588430 0.568558 0.147057
0.602711 0.569469 0.148504
0.616529 0.570429 0.150002
0.629907 0.571441 0.151549
0.642866 0.572503 0.153145
0.655427 0.573617 0.154787
0.667610 0.574783 0.156475
0.679435 0.576001 0.158207
0.690917 0.577270 0.159982
0.702075 0.578592 0.161799
0.712923 0.579964 0.163657
0.327170 0.579323 0.138386
0.330306 0.579386 0.138524
0.336029 0.579503 0.138779
0.341760 0.579622 0.139038
0.348379 0.579762 0.139342
0.356083 0.579928 0.139700
0.364842 0.580121 0.140115
0.374620 0.580342 0.140586
0.385371 0.580592 0.141116
0.397046 0.580872 0.141703
0.409592 0.581183 0.142348
0.422955 0.581525 0.143052
0.437083 0.581900 0.143814
0.451920 0.582309 0.144634
0.467417 0.582752 0.145512
0.483525 0.583231 0.146446
0.500195 0.583747 0.147438
0.516866 0.584301 0.148485
0.533033 0.584894 0.149587
0.548707 0.585527 0.150744
0.563900 0.586200 0.151954
0.578628 0.586916 0.153217
0.592907 0.587674 0.154531
0.606754 0.588475 0.155896
0.620185 0.589321 0.157311
0.633219 0.590211 0.158774
0.645872 0.591147 0.160284
0.658159 0.592129 0.161841
0.670098 0.593157 0.163443
0.681703 0.594232 0.165089
0.692988 0.595353 0.166777
0.703969 0.596521 0.168508
0.714657 0.597735 0.170279
0.342252 0.598245 0.146808
0.345229 0.598302 0.146937
0.350667 0.598406 0.147175
0.356120 0.598512 0.147416
0.362427 0.598637 0.147699
0.369779 0.598785 0.148033
0.378153 0.598958 0.148420
0.387517 0.599155 0.148860
0.397833 0.599378 0.149355
0.409057 0.599628 0.149904
0.421141 0.599905 0.150507
0.434039 0.600210 0.151166
0.447699 0.600544 0.151880
0.462072 0.600908 0.152648
0.477111 0.601302 0.153472
0.492769 0.601728 0.154349
0.508859 0.602187 0.155281
0.524649 0.602679 0.156266
0.540036 0.603206 0.157303
0.555018 0.603767 0.158393
0.569596 0.604365 0.159535
0.583777 0.605000 0.160727
0.597569 0.605672 0.161969
0.610980 0.606383 0.163261
0.624023 0.607133 0.164600
0.636709 0.607923 0.165987
0.649050 0.608754 0.167421
0.661058 0.609625 0.168899
0.672745 0.610538 0.170423
0.684123 0.611493 0.171989
0.695205 0.612489 0.173599
0.706001 0.613528 0.175249
0.716523 0.614609 0.176940
0.357283 0.616037 0.155085
0.360114 0.616087 0.155206
0.365293 0.616181 0.155429
0.370492 0.616277 0.155655
0.376513 0.616389 0.155920
0.383541 0.616522 0.156233
0.391558 0.616677 0.156596
0.400538 0.616854 0.157009
0.410447 0.617055 0.157473
0.421247 0.617279 0.157988
0.432896 0.617527 0.158556
0.445351 0.617801 0.159175
0.458565 0.618101 0.159846
0.472493 0.618427 0.160569
0.487090 0.618780 0.161344
0.502303 0.619162 0.162171
0.517556 0.619573 0.163050
0.532511 0.620013 0.163979
0.547151 0.620484 0.164959
0.561463 0.620986 0.165990
0.575443 0.621520 0.167070
0.589086 0.622087 0.168199
0.602396 0.622688 0.169376
0.615375 0.623323 0.170601
0.628030 0.623993 0.171872
0.640366 0.624698 0.173190
0.652391 0.625440 0.174554
0.664114 0.626218 0.175961
0.675544 0.627034 0.177413
0.686690 0.627887 0.178907
0.697562 0.628778 0.180443
0.708167 0.629707 0.182020
0.718517 0.630674 0.183637
0.372270 0.632838 0.163241
0.374969 0.632884 0.163355
0.379910 0.632969 0.163564
0.384877 0.633055 0.163777
0.390634 0.633157 0.164026
0.397362 0.633277 0.164321
0.405049 0.633417 0.164663
0.413670 0.633577 0.165052
0.423199 0.633758 0.165489
0.433601 0.633961 0.165974
0.444838 0.634185 0.166509
0.456872 0.634432 0.167093
0.469661 0.634703 0.167727
0.483162 0.634997 0.168409
0.497334 0.635316 0.169142
0.511879 0.635660 0.169924
0.526258 0.636029 0.170755
0.540424 0.636426 0.171635
0.554350 0.636850 0.172563
0.568019 0.637301 0.173540
0.581417 0.637782 0.174564
0.594536 0.638292 0.175636
0.607372 0.638831 0.176755
0.619923 0.639402 0.177919
0.632190 0.640004 0.179129
0.644176 0.640638 0.180384
0.655884 0.641304 0.181683
0.667320 0.642003 0.183026
0.678489 0.642736 0.184411
0.689399 0.643502 0.185839
0.700055 0.644303 0.187307
0.710465 0.645138 0.188816
0.720636 0.646009 0.190365
0.387218 0.648765 0.171293
0.389797 0.648807 0.171400
0.394520 0.648884 0.171598
0.399272 0.648962 0.171799
0.404786 0.649054 0.172034
0.411238 0.649164 0.172313
0.418616 0.649291 0.172635
0.426904 0.649436 0.173003
0.436076 0.649601 0.173416
0.446103 0.649785 0.173875
0.456952 0.649988 0.174381
0.468586 0.650212 0.174934
0.480969 0.650458 0.175533
0.494062 0.650725 0.176180
0.507717 0.651013 0.176875
0.521382 0.651325 0.177616
0.534944 0.651660 0.178404
0.548365 0.652019 0.179239
0.561612 0.652403 0.180121
0.574663 0.652811 0.181050
0.587499 0.653246 0.182024
0.600107 0.653707 0.183044
0.612479 0.654194 0.184109
0.624608 0.654710 0.185218
0.636492 0.655254 0.186372
0.648128 0.655826 0.187569
0.659519 0.656428 0.188810
0.670666 0.657059 0.190093
0.681572 0.657721 0.191417
0.692241 0.658413 0.192783
0.702678 0.659137 0.194189
0.712888 0.659891 0.195635
0.722877 0.660678 0.197120
0.402134 0.663912 0.179255
0.404602 0.663950 0.179357
0.409125 0.664020 0.179544
0.413679 0.664092 0.179734
0.418968 0.664176 0.179957
0.425162 0.664276 0.180221
0.432254 0.664392 0.180527
0.440229 0.664525 0.180875
0.449067 0.664675 0.181267
0.458741 0.664842 0.181702
0.469222 0.665028 0.182182
0.480478 0.665233 0.182707
0.492474 0.665456 0.183276
0.505127 0.665699 0.183891
0.517956 0.665962 0.184550
0.530795 0.666246 0.185255
0.543595 0.666551 0.186005
0.556313 0.666878 0.186800
0.568915 0.667227 0.187639
0.581375 0.667598 0.188524
0.593669 0.667993 0.189452
0.605782 0.668412 0.190425
0.617701 0.668855 0.191441
0.629416 0.669323 0.192500
0.640920 0.669816 0.193602
