Android/app/src/main/assets/LUTs/11SN_STD5HLG_NLE_V1_1.cube
TITLE "11SN_STD5HLG_NLE_V1_1.cube"
# Input color space: BT.709/SDR
# Output color space: BT.2020/HLG
# NLE style
# Creation: July 01, 2024
LUT_3D_SIZE 9
0.000000 0.000000 0.000000
0.098083 0.011019 0.005367
0.219252 0.020180 0.007764
0.320620 0.045574 0.010184
0.416434 0.080021 0.013753
0.509697 0.118805 0.022249
0.587768 0.153248 0.033888
0.649451 0.185266 0.047794
0.700869 0.215969 0.063679
0.039016 0.128127 0.010719
0.128591 0.132602 0.011280
0.228511 0.140615 0.012395
0.323975 0.153686 0.016121
0.417735 0.170676 0.022931
0.510552 0.190425 0.032346
0.588282 0.212088 0.044002
0.649796 0.235095 0.057702
0.701116 0.259068 0.073325
0.115007 0.249956 0.024286
0.173178 0.251559 0.026075
0.249465 0.254780 0.029463
0.334885 0.260282 0.034755
0.424007 0.268432 0.042051
0.514332 0.279264 0.051371
0.590259 0.292570 0.062689
0.650971 0.308039 0.075956
0.701880 0.325342 0.090761
0.186537 0.357760 0.053931
0.224735 0.358807 0.055701
0.283772 0.360833 0.059008
0.357147 0.364161 0.064102
0.438584 0.369067 0.071062
0.523488 0.375770 0.079928
0.595199 0.384374 0.090481
0.653902 0.394871 0.101603
0.703750 0.407170 0.113036
0.250589 0.462326 0.092719
0.278897 0.463099 0.094243
0.326015 0.464575 0.097028
0.388593 0.466943 0.101166
0.461579 0.470365 0.106561
0.538532 0.475012 0.113067
0.603978 0.481024 0.120524
0.659356 0.488492 0.128778
0.707313 0.497450 0.137693
0.312028 0.559094 0.129791
0.334374 0.559589 0.130822
0.373078 0.560527 0.132733
0.426738 0.562006 0.135631
0.491720 0.564100 0.139508
0.558378 0.566885 0.144321
0.616529 0.570429 0.150002
0.667610 0.574783 0.156475
0.712923 0.579964 0.163657
0.372270 0.632838 0.163241
0.390634 0.633157 0.164026
0.423199 0.633758 0.165489
0.469661 0.634703 0.167727
0.526258 0.636029 0.170755
0.581417 0.637782 0.174564
0.632190 0.640004 0.179129
0.678489 0.642736 0.184411
0.720636 0.646009 0.190365
0.431886 0.692174 0.194958
0.447409 0.692397 0.195592
0.475351 0.692817 0.196778
0.515570 0.693475 0.198601
0.560727 0.694395 0.201083
0.606207 0.695603 0.204229
0.650109 0.697126 0.208031
0.691563 0.698993 0.212470
0.730283 0.701230 0.217523
0.491152 0.742156 0.225698
0.504515 0.742321 0.226230
0.527521 0.742632 0.227227
0.558407 0.743117 0.228763
0.594025 0.743793 0.230864
0.631677 0.744677 0.233538
0.669486 0.745787 0.236786
0.707364 0.748161 0.241304
0.750010 0.757169 0.250906
0.009259 0.004743 0.153729
0.101429 0.011401 0.141384
0.220950 0.021461 0.128632
0.321654 0.046964 0.125145
0.417138 0.081327 0.125626
0.510207 0.119769 0.128634
0.588072 0.153954 0.133598
0.649650 0.185821 0.139992
0.701009 0.216426 0.147470
0.045082 0.128337 0.135200
0.132910 0.132910 0.132910
0.230514 0.141152 0.130257
0.325170 0.154271 0.129572
0.418544 0.171229 0.131052
0.511119 0.190923 0.134412
0.588613 0.212529 0.139318
0.650009 0.235486 0.145479
0.701266 0.259418 0.152655
0.119575 0.249931 0.136123
0.176198 0.251577 0.136384
0.251422 0.254866 0.137047
0.336188 0.260434 0.138472
0.424915 0.268631 0.140941
0.514960 0.279489 0.144568
0.590627 0.292807 0.149330
0.651210 0.308278 0.155129
0.702049 0.325578 0.161840
0.189190 0.357703 0.148938
0.226919 0.358765 0.149569
0.285444 0.360819 0.150768
0.358396 0.364181 0.152676
0.439520 0.369124 0.155390
0.524145 0.375860 0.158977
0.595602 0.384490 0.163455
0.654170 0.395006 0.168797
0.703939 0.407317 0.174945
0.252472 0.462273 0.167069
0.280579 0.463054 0.167722
0.327429 0.464544 0.168944
0.389740 0.466931 0.170834
0.462498 0.470376 0.173437
0.539175 0.475046 0.176782
0.604395 0.481079 0.180882
0.659642 0.488565 0.185728
0.707518 0.497537 0.191292
0.313487 0.559061 0.188241
0.335730 0.559559 0.188844
0.374281 0.560503 0.189971
0.427769 0.561991 0.191708
0.492587 0.564095 0.194084
0.558967 0.566891 0.197119
0.616935 0.570448 0.200818
0.667899 0.574812 0.205178
0.713135 0.580002 0.210184
0.373456 0.632817 0.211320
0.391761 0.633137 0.211861
0.424233 0.633741 0.212873
0.470581 0.634690 0.214434
0.526988 0.636022 0.216570
0.581938 0.637780 0.219294
0.632569 0.640008 0.222614
0.678770 0.642747 0.226528
0.720848 0.646025 0.231028
0.432883 0.692159 0.235665
0.448369 0.692383 0.236148
0.476251 0.692805 0.237053
0.516346 0.693464 0.238449
0.561322 0.694387 0.240363
0.606659 0.695598 0.242806
0.650454 0.697125 0.245786
0.691828 0.698997 0.249305
0.730489 0.701237 0.253357
0.492009 0.742146 0.260889
0.505333 0.742311 0.261321
0.528238 0.742622 0.262132
0.559007 0.743109 0.263385
0.594512 0.743786 0.265103
0.632065 0.744672 0.267300
0.669795 0.745785 0.269985
0.707904 0.748448 0.274181
0.750660 0.757624 0.283902
0.013756 0.007034 0.303513
0.107235 0.011929 0.293043
0.222461 0.023756 0.273289
0.322509 0.049395 0.259984
0.417789 0.083635 0.251259
0.510768 0.121456 0.245883
0.588462 0.155204 0.243274
0.649937 0.186820 0.242736
0.701229 0.217260 0.243832
0.055928 0.127857 0.278162
0.139791 0.132865 0.271975
0.233481 0.141725 0.263252
0.326832 0.155093 0.255566
0.419660 0.172096 0.249982
0.511923 0.191752 0.246512
0.589108 0.213294 0.244912
0.650350 0.236184 0.244920
0.701516 0.260053 0.246309
0.127516 0.249559 0.258561
0.181487 0.251330 0.257106
0.254806 0.254806 0.254806
0.338402 0.260558 0.252217
0.426441 0.268896 0.250023
0.516015 0.279843 0.248667
0.591254 0.293208 0.248352
0.651624 0.308699 0.249123
0.702343 0.326002 0.250947
0.194006 0.357493 0.255093
0.230890 0.358594 0.254792
0.288485 0.360713 0.254313
0.360661 0.364158 0.253795
0.441214 0.369185 0.253481
0.525327 0.375994 0.253609
0.596327 0.384682 0.254362
0.654651 0.395238 0.255847
0.704279 0.407577 0.258112
0.255945 0.462135 0.259722
0.283683 0.462932 0.259804
0.330040 0.464451 0.259981
0.391856 0.466878 0.260319
0.464190 0.470369 0.260913
0.540352 0.475086 0.261874
0.605158 0.481163 0.263306
0.660165 0.488686 0.265290
0.707891 0.497688 0.267881
0.316195 0.558980 0.269596
0.338248 0.559485 0.269826
0.376515 0.560441 0.270264
0.429683 0.561946 0.270965
0.494196 0.564072 0.271975
0.560057 0.566892 0.273347
0.617684 0.570471 0.275139
0.668433 0.574857 0.277400
0.713526 0.580066 0.280170
0.375667 0.632769 0.283223
0.393863 0.633091 0.283510
0.426160 0.633701 0.284052
0.472294 0.634657 0.284898
0.528343 0.635999 0.286079
0.582906 0.637769 0.287626
0.633273 0.640010 0.289570
0.679291 0.642761 0.291942
0.721242 0.646052 0.294766
0.434744 0.692127 0.299656
0.450162 0.692352 0.299961
0.477931 0.692776 0.300533
0.517790 0.693440 0.301423
0.562429 0.694368 0.302653
0.607501 0.695586 0.304245
0.651096 0.697120 0.306220
0.692322 0.698999 0.308596
0.730873 0.701247 0.311388
0.493612 0.742123 0.318235
0.506857 0.742289 0.318538
0.529575 0.742602 0.319108
0.560126 0.743090 0.319992
0.595420 0.743771 0.321211
0.632791 0.744661 0.322782
0.670371 0.745778 0.324720
0.708851 0.748923 0.328650
0.751777 0.758376 0.338598
0.027582 0.009282 0.435468
0.119619 0.013171 0.425911
0.225812 0.027472 0.407220
0.324057 0.053138 0.390082
0.418795 0.087174 0.376186
0.511577 0.123984 0.365587
0.589010 0.157092 0.358051
0.650339 0.188334 0.352878
0.701539 0.218526 0.349592
0.072373 0.127989 0.411280
0.149736 0.133344 0.403714
0.238097 0.142747 0.392534
0.329401 0.156361 0.381063
0.421336 0.173400 0.371131
0.513099 0.192997 0.363211
0.589823 0.214446 0.357244
0.650837 0.237237 0.353026
0.701873 0.261013 0.350341
0.138799 0.249039 0.382548
0.189272 0.250981 0.380021
0.259877 0.254714 0.375826
0.341736 0.260732 0.370594
0.428730 0.269276 0.365245
0.517579 0.280360 0.360444
0.592178 0.293802 0.356552
0.652232 0.309327 0.353714
0.702772 0.326637 0.351952
0.201189 0.357137 0.368988
0.236854 0.358297 0.368027
0.293078 0.360517 0.366351
0.364090 0.364090 0.364090
0.443776 0.369248 0.361573
0.527101 0.376173 0.359153
0.597413 0.384952 0.357121
0.655370 0.395576 0.355674
0.704783 0.407959 0.354927
0.261209 0.461888 0.364365
0.288399 0.462710 0.364010
0.334013 0.464274 0.363384
0.395079 0.466765 0.362522
0.466766 0.470330 0.361549
0.542132 0.475123 0.360628
0.606311 0.481269 0.359927
0.660953 0.488853 0.359589
0.708454 0.497904 0.359725
0.320331 0.558832 0.365795
0.342097 0.559348 0.365718
0.379932 0.560324 0.365586
0.432612 0.561857 0.365424
0.496657 0.564018 0.365285
0.561715 0.566875 0.365250
0.618825 0.570493 0.365406
0.669244 0.574913 0.365845
0.714121 0.580152 0.366644
0.379059 0.632680 0.371720
0.397088 0.633008 0.371781
0.429118 0.633626 0.371902
0.474927 0.634595 0.372107
0.530411 0.635954 0.372426
0.584386 0.637743 0.372902
0.634349 0.640004 0.373584
0.680088 0.642775 0.374525
0.721843 0.646085 0.375776
0.437609 0.692069 0.381152
0.452923 0.692296 0.381286
0.480518 0.692725 0.381540
0.519998 0.693396 0.381943
0.564125 0.694332 0.382514
0.608793 0.695560 0.383281
0.652081 0.697106 0.384272
0.693079 0.698997 0.385519
0.731461 0.701257 0.387057
0.496084 0.742082 0.393399
0.509192 0.742249 0.393571
0.531625 0.742564 0.393895
0.561843 0.743057 0.394403
0.596815 0.743743 0.395111
0.633906 0.744639 0.396036
0.671257 0.745762 0.397200
0.710304 0.749646 0.401319
0.753489 0.759525 0.412053
0.050979 0.011464 0.556542
0.135598 0.016923 0.549083
0.231645 0.032762 0.534990
0.326793 0.058286 0.518605
0.420412 0.092024 0.502467
0.512754 0.127350 0.488363
0.589761 0.159629 0.477173
0.650873 0.190377 0.468408
0.701944 0.220240 0.461656
0.094387 0.129228 0.537696
0.162392 0.134762 0.530965
0.244608 0.144450 0.520263
0.333113 0.158187 0.507595
0.423724 0.175198 0.495003
0.514722 0.194689 0.483888
0.590789 0.216005 0.474591
0.651486 0.238662 0.467053
0.702344 0.262313 0.461117
0.152807 0.248564 0.508266
0.199368 0.250689 0.505141
0.266653 0.254704 0.499751
0.346260 0.261022 0.492675
0.431849 0.269813 0.484997
0.519688 0.281063 0.477551
0.593420 0.294601 0.470841
0.653043 0.310171 0.465111
0.703342 0.327492 0.460447
0.210611 0.356680 0.488005
0.244762 0.357914 0.486536
0.299233 0.360261 0.483934
0.368715 0.363998 0.480306
0.447242 0.369326 0.476040
0.529483 0.376404 0.471571
0.598871 0.385307 0.467277
0.656334 0.396021 0.463430
0.705459 0.408467 0.460200
0.268256 0.461535 0.476369
0.294733 0.462391 0.475657
0.339373 0.464017 0.474373
0.399441 0.466593 0.472525
0.470259 0.470259 0.470259
0.544529 0.475154 0.467778
0.607867 0.481397 0.465299
0.662016 0.489064 0.463016
0.709212 0.498184 0.461083
0.325924 0.558612 0.471115
0.347308 0.559143 0.470778
0.384568 0.560145 0.470164
0.436591 0.561718 0.469271
0.500004 0.563927 0.468158
0.563955 0.566837 0.466923
0.620369 0.570508 0.465681
0.670343 0.574977 0.464553
0.714926 0.580260 0.463650
0.383672 0.632545 0.470737
0.401476 0.632879 0.470602
0.433148 0.633510 0.470357
0.478514 0.634497 0.470004
0.533206 0.635879 0.469571
0.586393 0.637695 0.469108
0.635810 0.639985 0.468679
0.681171 0.642785 0.468356
0.722660 0.646122 0.468211
0.441519 0.691979 0.474241
0.456691 0.692209 0.474222
0.484051 0.692645 0.474191
0.522988 0.693325 0.474155
0.566428 0.694274 0.474134
0.610549 0.695517 0.474154
0.653423 0.697079 0.474253
0.694111 0.698987 0.474474
0.732263 0.701265 0.474863
0.499466 0.742018 0.480925
0.512356 0.742188 0.480975
0.534407 0.742506 0.481073
0.564178 0.743004 0.481231
0.598715 0.743697 0.481463
0.635427 0.744602 0.481787
0.672467 0.745735 0.482226
0.712280 0.750621 0.487278
0.755809 0.761072 0.499501
0.080352 0.015455 0.644579
0.153706 0.023333 0.639504
0.240024 0.039669 0.630564
0.331083 0.064899 0.619137
0.422929 0.098081 0.606922
0.514459 0.131523 0.595443
0.590787 0.162816 0.585316
0.651574 0.192958 0.576570
0.702461 0.222410 0.569133
0.119844 0.131725 0.631806
0.177270 0.137281 0.627337
0.253102 0.146988 0.619920
0.338180 0.160669 0.610580
0.426997 0.177546 0.600686
0.516898 0.196860 0.591136
0.592060 0.217992 0.582387
0.652323 0.240472 0.574627
0.702942 0.263963 0.567902
0.168910 0.248351 0.610771
0.211512 0.250642 0.608323
0.275104 0.254918 0.604045
0.352033 0.261527 0.598208
0.435874 0.270565 0.591487
0.522391 0.281989 0.584515
0.595010 0.295631 0.577757
0.654076 0.311249 0.571506
0.704063 0.328579 0.565921
0.222057 0.356202 0.593348
0.254498 0.357518 0.592004
0.306914 0.360008 0.589586
0.374550 0.363930 0.586125
0.451644 0.369455 0.581896
0.532488 0.376712 0.577240
0.600719 0.385761 0.572483
0.657555 0.396586 0.567886
0.706312 0.409109 0.563638
0.277016 0.461102 0.580749
0.302646 0.462000 0.579987
0.346108 0.463700 0.578597
0.404950 0.466380 0.576556
0.474686 0.470168 0.573974
0.547544 0.475190 0.571019
0.609832 0.481553 0.567880
0.663361 0.489325 0.564741
0.710170 0.498531 0.561758
0.332958 0.558323 0.572543
0.353876 0.558873 0.572106
0.390427 0.559909 0.571305
0.441634 0.561531 0.570114
0.504222 0.563801 0.568577
0.566779 0.566779 0.566779
0.622322 0.570517 0.564823
0.671735 0.575049 0.562825
0.715945 0.580387 0.560896
0.389515 0.632362 0.568107
0.407040 0.632704 0.567864
0.438263 0.633351 0.567417
0.483075 0.634361 0.566748
0.536726 0.635773 0.565878
0.588929 0.637624 0.564850
0.637661 0.639951 0.563722
0.682545 0.642789 0.562563
0.723697 0.646162 0.561447
0.446492 0.691855 0.566868
0.461487 0.692090 0.566745
0.488550 0.692533 0.566518
0.526755 0.693225 0.566180
0.569340 0.694191 0.565740
0.612776 0.695453 0.565223
0.655127 0.697037 0.564663
0.695424 0.698967 0.564101
0.733284 0.701268 0.563584
0.503755 0.741930 0.568320
0.516342 0.742102 0.568273
0.537920 0.742425 0.568187
0.567133 0.742930 0.568061
0.601126 0.743632 0.567902
0.637361 0.744548 0.567724
0.674006 0.745695 0.567549
0.714778 0.751841 0.572996
0.758734 0.763006 0.584038
0.113821 0.023312 0.712331
0.173185 0.031859 0.708828
0.250709 0.048173 0.702589
0.337100 0.073001 0.694096
0.426597 0.104985 0.684451
0.516852 0.136456 0.674942
0.592173 0.166641 0.666127
0.652487 0.196078 0.658179
0.703116 0.225043 0.651134
0.144668 0.135463 0.703104
0.193888 0.140891 0.699920
0.263513 0.150415 0.694462
0.344731 0.163866 0.687248
0.431315 0.180487 0.679205
0.519735 0.199542 0.671074
0.593700 0.220427 0.663310
0.653387 0.242683 0.656150
0.703689 0.265975 0.649695
0.186584 0.248582 0.687293
0.225415 0.251004 0.685307
0.285159 0.255494 0.681792
0.359096 0.262348 0.676895
0.440879 0.271603 0.671099
0.525738 0.283184 0.664903
0.596987 0.296919 0.658704
0.655356 0.312578 0.652774
0.704952 0.329910 0.647274
0.235272 0.355805 0.672381
0.265902 0.357204 0.671188
0.316059 0.359838 0.669030
0.381593 0.363951 0.665908
0.457008 0.369681 0.662031
0.536129 0.377129 0.657674
0.602972 0.386339 0.653107
0.659046 0.397287 0.648559
0.707354 0.409897 0.644199
0.287377 0.460636 0.660335
0.312059 0.461580 0.659607
0.354180 0.463362 0.658274
0.411598 0.466159 0.656301
0.480058 0.470084 0.653775
0.551174 0.475251 0.650832
0.612213 0.481751 0.647634
0.664995 0.489645 0.644337
0.711336 0.498954 0.641080
0.341390 0.557981 0.651363
0.361768 0.558553 0.650911
0.397493 0.559629 0.650077
0.447737 0.561309 0.648827
0.509259 0.563651 0.647197
0.570179 0.566707 0.645254
0.624685 0.570525 0.643088
0.673423 0.575134 0.640798
0.717184 0.580538 0.638483
0.396572 0.632135 0.645209
0.413769 0.632488 0.644927
0.444461 0.633153 0.644405
0.488613 0.634192 0.643618
0.540950 0.635639 0.642580
0.591991 0.637532 0.641325
0.639904 0.639904 0.639904
0.684213 0.642787 0.638378
0.724958 0.646204 0.636811
0.452531 0.691696 0.641540
0.467313 0.691937 0.641367
0.494022 0.692390 0.641048
0.531274 0.693098 0.640564
0.572850 0.694082 0.639923
0.615472 0.695368 0.639142
0.657195 0.696978 0.638251
0.697019 0.698937 0.637286
0.734525 0.701265 0.636290
0.508894 0.741816 0.640038
0.521126 0.741990 0.639939
0.542146 0.742319 0.639754
0.570701 0.742833 0.639474
0.604045 0.743546 0.639102
0.639707 0.744476 0.638650
0.676553 0.746282 0.638833
0.717789 0.753294 0.644359
0.762370 0.765430 0.655142
0.144416 0.033556 0.768134
0.193577 0.042160 0.765585
0.263365 0.058232 0.760958
0.344855 0.082591 0.754395
0.431567 0.112586 0.746645
0.520062 0.142091 0.738676
0.594006 0.171083 0.730967
0.653666 0.199730 0.723760
0.703942 0.228138 0.717163
0.169038 0.140283 0.761096
0.211845 0.145499 0.758722
0.275672 0.154707 0.754559
0.352805 0.167794 0.748851
0.436793 0.184046 0.742219
0.523325 0.202755 0.735243
0.595776 0.223327 0.728342
0.654719 0.245308 0.721770
0.704613 0.268359 0.715667
0.205429 0.249383 0.748857
0.240799 0.251896 0.747222
0.296710 0.256537 0.744299
0.367457 0.263573 0.740151
0.446924 0.272994 0.735124
0.529772 0.284696 0.729611
0.599391 0.298500 0.723949
0.656913 0.314181 0.718390
0.706028 0.331502 0.713096
0.250000 0.355592 0.736092
0.278797 0.357069 0.735033
0.326581 0.359838 0.733107
0.389824 0.364132 0.730295
0.463353 0.370062 0.726758
0.540410 0.377700 0.722716
0.605649 0.387071 0.718398
0.660825 0.398145 0.714007
0.708597 0.410845 0.709698
0.299206 0.460194 0.724881
0.322872 0.461186 0.724195
0.363529 0.463054 0.722936
0.419363 0.465972 0.721063
0.486376 0.470044 0.718642
0.555409 0.475365 0.715790
0.615014 0.482015 0.712642
0.666926 0.490043 0.709337
0.712715 0.499465 0.706001
0.351149 0.557610 0.715811
0.370929 0.558205 0.715360
0.405730 0.559326 0.714529
0.454885 0.561071 0.713278
0.515070 0.563492 0.711634
0.574141 0.566637 0.709655
0.627456 0.570545 0.707417
0.675412 0.575238 0.705011
0.718646 0.580718 0.702523
0.404812 0.631872 0.708888
0.421636 0.632237 0.708589
0.451724 0.632924 0.708036
0.495121 0.633995 0.707198
0.545848 0.635484 0.706085
0.595565 0.637425 0.704725
0.642535 0.639849 0.703163
0.686176 0.642784 0.701453
0.726445 0.646251 0.699654
0.459621 0.691507 0.703947
0.474160 0.691754 0.703749
0.500460 0.692219 0.703381
0.536510 0.692944 0.702822
0.576941 0.693952 0.702074
0.618627 0.695265 0.701152
0.659624 0.696906 0.700083
0.698898 0.698898 0.698898
0.735990 0.701259 0.697636
0.514834 0.741676 0.700786
0.526665 0.741854 0.700657
0.547056 0.742190 0.700416
0.574860 0.742713 0.700049
0.607460 0.743441 0.699557
0.642461 0.744387 0.698947
0.680804 0.748168 0.700916
0.722717 0.756356 0.707098
0.767367 0.768999 0.717589
0.172670 0.045579 0.815821
0.214598 0.054055 0.813870
0.277662 0.069796 0.810286
0.354261 0.093571 0.805065
0.437901 0.120761 0.798780
0.524167 0.148362 0.792059
0.596358 0.176112 0.785315
0.655163 0.203903 0.778808
0.704972 0.231693 0.772686
0.193132 0.146021 0.810242
0.230828 0.150984 0.808412
0.289372 0.159804 0.805150
0.362362 0.172433 0.800555
0.443492 0.188225 0.795036
0.527724 0.206508 0.789034
0.598344 0.226704 0.782910
0.656363 0.248356 0.776915
0.705743 0.271124 0.771206
0.225153 0.250820 0.800556
0.257416 0.253387 0.799198
0.309629 0.258120 0.796747
0.377092 0.265268 0.793217
0.454046 0.274793 0.788853
0.534518 0.286567 0.783957
0.602256 0.300404 0.778814
0.658776 0.316082 0.773651
0.707314 0.333371 0.768628
0.266003 0.355655 0.789630
0.293006 0.357199 0.788690
0.338381 0.360087 0.786976
0.399212 0.364543 0.784454
0.470688 0.370653 0.781243
0.545330 0.378467 0.777522
0.608764 0.387991 0.773485
0.662909 0.399186 0.769308
0.710056 0.411973 0.765135
0.312354 0.459838 0.779357
0.334970 0.460877 0.778718
0.374083 0.462830 0.777541
0.428212 0.465870 0.775783
0.493636 0.470089 0.773496
0.560230 0.475567 0.770774
0.618236 0.482370 0.767735
0.669160 0.490538 0.764503
0.714317 0.500079 0.761189
0.362152 0.557238 0.770519
0.381292 0.557860 0.770081
0.415091 0.559027 0.769271
0.463053 0.560839 0.768048
0.521597 0.563345 0.766433
0.578644 0.566585 0.764474
0.630631 0.570590 0.762240
0.677701 0.575375 0.759808
0.720334 0.580937 0.757259
0.414187 0.631587 0.763311
0.430604 0.631965 0.763008
0.460025 0.632675 0.762446
0.502568 0.633782 0.761591
0.551379 0.635317 0.760452
0.599633 0.637310 0.759051
0.645548 0.639792 0.757428
0.688432 0.642786 0.755632
0.728159 0.646309 0.753716
0.467737 0.691293 0.757695
0.482006 0.691547 0.757485
0.507741 0.692025 0.757092
0.542415 0.692769 0.756494
0.581585 0.693803 0.755691
0.622228 0.695147 0.754694
0.662408 0.696823 0.753527
0.701058 0.698852 0.752219
0.737678 0.701251 0.750806
0.521511 0.741513 0.753559
0.532907 0.741695 0.753412
0.552608 0.742039 0.753139
0.579583 0.742574 0.752721
0.611355 0.743317 0.752158
0.645614 0.744282 0.751455
0.685608 0.750266 0.755392
0.728293 0.759794 0.762520
0.772939 0.772939 0.772939
