Android/app/src/main/assets/LUTs/BT709_to_HLG.cube
TITLE "BT709_to_HLG"
LUT_3D_SIZE 5
# BT709 SDR to BT2020 HLG with reference white 75% (Full Range in - Full Range out)
0.00819792 0.00242625 0.00043791
0.18402427 0.06088992 0.02962403
0.39449512 0.13093914 0.06357702
0.59779249 0.20454676 0.09962744
0.72896984 0.28058096 0.13663559
0.12678654 0.21180433 0.06540836
0.21373644 0.21733672 0.07061753
0.40535515 0.24085141 0.08874041
0.60194525 0.28341161 0.11621075
0.73089404 0.33975325 0.14860098
0.27170615 0.45399282 0.14044566
0.31646649 0.45620104 0.14260733
0.45811765 0.46585019 0.15132694
0.62233341 0.48543727 0.16757268
0.73969385 0.51568473 0.19016024
0.42437307 0.65695567 0.21941937
0.45216400 0.65772571 0.22070090
0.55002941 0.66101594 0.22609279
0.66112120 0.66802539 0.23663242
0.76578944 0.68423760 0.25663004
0.60758878 0.81489122 0.32568310
0.62336321 0.81651973 0.32779210
0.67823362 0.82321244 0.33663128
0.75956524 0.83589186 0.35331647
0.84626900 0.85236178 0.37769425
0.05029643 0.02580052 0.22996733
0.18794535 0.06496734 0.21926332
0.39607272 0.13260291 0.21436274
0.59843833 0.20554889 0.22067212
0.72927717 0.28127563 0.23522402
0.13427444 0.21226162 0.21828599
0.21790971 0.21790971 0.21790971
0.40707967 0.24151903 0.21944449
0.60262927 0.28403357 0.22704332
0.73121576 0.34027830 0.24165166
0.27483339 0.45416793 0.24038028
0.31908083 0.45638911 0.24128287
0.45983174 0.46607375 0.24522254
0.62303023 0.48569851 0.25364072
0.74000581 0.51594510 0.26719007
0.42625173 0.65701602 0.28862200
0.45388962 0.65778781 0.28948050
0.55118648 0.66108449 0.29313472
0.66176060 0.66815189 0.30084948
0.76643478 0.68463662 0.31796514
0.60910347 0.81536183 0.38114332
0.62473748 0.81697785 0.38325240
0.67932358 0.82366082 0.39205256
0.76034249 0.83625883 0.40860438
0.84677816 0.85263816 0.43249050
0.10839649 0.05546712 0.49316338
0.20602797 0.08006007 0.48491083
0.40305118 0.13952919 0.46997355
0.60123351 0.20973806 0.46116825
0.73060004 0.28423097 0.45934501
0.16221091 0.21481609 0.47624377
0.23459819 0.22063173 0.47356661
0.41449220 0.24443607 0.46664740
0.60555266 0.28671738 0.46152408
0.73259040 0.34248914 0.46120063
0.28792295 0.45496956 0.46785514
0.33004264 0.45724118 0.46761837
0.46705868 0.46705868 0.46705868
0.62595415 0.48682532 0.46745195
0.74133384 0.51705466 0.47029369
0.43422406 0.65728342 0.48244531
0.46122287 0.65806137 0.48270269
0.55600069 0.66138372 0.48386515
0.66450174 0.66872834 0.48742507
0.76924551 0.68641636 0.50238768
0.61539480 0.81732144 0.55525889
0.63039960 0.81888554 0.55714666
0.68395688 0.82552703 0.56465687
0.76362252 0.83779605 0.57821507
0.84891661 0.85379611 0.59608954
0.16939449 0.08674698 0.69014757
0.23998240 0.10314220 0.68711997
0.41769966 0.15271585 0.67903804
0.60698821 0.21798915 0.67124245
0.73334393 0.29014800 0.66533862
0.20593761 0.22120742 0.68251115
0.26501566 0.22701068 0.68086788
0.42990098 0.25061465 0.67575762
0.61148309 0.29215226 0.66986727
0.73531009 0.34697193 0.66504727
0.31248150 0.45686398 0.67182755
0.35126989 0.45921266 0.67136686
0.48115248 0.46920962 0.66966086
0.63164605 0.48920180 0.66721186
0.74403156 0.51933587 0.66516918
0.44968485 0.65785779 0.66940955
0.47589535 0.65864782 0.66932719
0.56535354 0.66202837 0.66905399
0.67031541 0.67031541 0.67031541
0.77539594 0.69046450 0.68017421
0.62742597 0.82111565 0.71416153
0.64143349 0.82268355 0.71548589
0.69338326 0.82914469 0.72079345
0.77015288 0.84079290 0.73030873
0.85312734 0.85607068 0.74284835
0.23234794 0.11899526 0.81622897
0.28552293 0.13088466 0.81481516
0.44153100 0.17141278 0.81007747
0.61653052 0.23069150 0.80391958
0.73752500 0.29909807 0.79824976
0.25897918 0.23234111 0.81222391
0.30646832 0.23807522 0.81119108
0.45344602 0.26074796 0.80753998
0.62118594 0.30077025 0.80246306
0.73949321 0.35409181 0.79752925
0.34746851 0.46038382 0.80332644
0.38219273 0.46281172 0.80287798
0.50286003 0.47289233 0.80117087
0.64041928 0.49313292 0.79845548
0.74834219 0.52298740 0.79548709
0.47346440 0.65889793 0.79741496
0.49821548 0.65970716 0.79726042
0.57955268 0.66340684 0.79691034
0.67937263 0.67336575 0.79927411
0.78557345 0.69801454 0.81144760
0.64476118 0.82705449 0.83768254
0.65832724 0.82851579 0.83872562
0.70622691 0.83443793 0.84290787
0.78010131 0.84523350 0.85022552
0.85947588 0.85947824 0.85947783
