Android/app/src/main/assets/LUTs/BT709_to_HLG.cube
TITLE "BT709_to_HLG"
LUT_3D_SIZE 9
# BT709 SDR to BT2020 HLG with reference white 75% (Full Range in - Full Range out)
0.00819792 0.00242625 0.00043791
0.08591333 0.02829814 0.01375700
0.18402427 0.06088992 0.02962403
0.28754620 0.09539810 0.04625194
0.39449512 0.13093914 0.06357702
0.50426921 0.16737211 0.08154606
0.59779249 0.20454676 0.09962744
0.66893135 0.24231519 0.11799523
0.72896984 0.28058096 0.13663559
0.05901682 0.09885583 0.03038873
0.09975901 0.10142965 0.03273582
0.18915880 0.11253591 0.04127672
0.29034411 0.13251014 0.05414745
0.39638141 0.15869204 0.06938212
0.50556692 0.18907665 0.08581032
0.59854470 0.22202232 0.10302902
0.66940765 0.25689910 0.12082405
0.72932808 0.29303436 0.13903276
0.12678654 0.21180433 0.06540836
0.14786460 0.21285667 0.06645700
0.21373644 0.21733672 0.07061753
0.30415924 0.22640359 0.07823100
0.40535515 0.24085141 0.08874041
0.51158663 0.26005014 0.10165139
0.60194525 0.28341161 0.11621075
0.67152414 0.31020321 0.13192974
0.73089404 0.33975325 0.14860098
0.19802979 0.33083275 0.10233374
0.21108963 0.33145006 0.10293229
0.25865704 0.33406428 0.10540777
0.33384429 0.33947342 0.11028670
0.42552390 0.34798617 0.11756364
0.52532059 0.36024479 0.12717333
0.60946076 0.37604176 0.13861276
0.67631358 0.39529389 0.15167398
0.73425063 0.41735472 0.16602743
0.27170615 0.45399282 0.14044566
0.28083566 0.45441447 0.14086209
0.31646649 0.45620104 0.14260733
0.37777862 0.45987159 0.14606766
0.45811765 0.46585019 0.15132694
0.54713296 0.47426392 0.15857167
0.62233341 0.48543727 0.16757268
0.68470403 0.49946960 0.17820278
0.73969385 0.51568473 0.19016024
0.34732878 0.57093729 0.17954922
0.35431350 0.57117865 0.17985839
0.38192985 0.57219980 0.18115772
0.43232080 0.57427566 0.18377967
0.50211066 0.57757960 0.18788863
0.57493968 0.58217772 0.19348329
0.63951858 0.58849576 0.20064242
0.69608638 0.59630209 0.20935635
0.74774409 0.60542056 0.21940456
0.42437307 0.65695567 0.21941937
0.42985834 0.65710164 0.21966498
0.45216400 0.65772571 0.22070090
0.49438200 0.65899315 0.22279278
0.55002941 0.66101594 0.22609279
0.60695807 0.66388219 0.23060776
0.66112120 0.66802539 0.23663242
0.71354098 0.67409802 0.24491001
0.76578944 0.68423760 0.25663004
0.50589472 0.72855639 0.26160520
0.51034702 0.72875848 0.26187196
0.52806452 0.72962181 0.26299988
0.56018029 0.73141361 0.26535918
0.60246009 0.73466329 0.26942657
0.64999114 0.74002375 0.27583098
0.70026154 0.74802464 0.28503907
0.75291305 0.75954359 0.29745271
0.80626270 0.77417902 0.31324290
0.60758878 0.81489122 0.32568310
0.61075278 0.81520809 0.32609093
0.62336321 0.81651973 0.32779210
0.64610034 0.81910332 0.33121287
0.67823362 0.82321244 0.33663128
0.71713779 0.82895281 0.34405785
0.75956524 0.83589186 0.35331647
0.80382026 0.84383086 0.36471321
0.84626900 0.85236178 0.37769425
0.02333429 0.01205046 0.10734475
0.08774520 0.03019349 0.10232882
0.18475285 0.06168159 0.10015765
0.28797914 0.09588011 0.10315460
0.39479462 0.13126004 0.10992219
0.50447992 0.16761789 0.11972349
0.59791578 0.20473890 0.13172984
0.66900975 0.24246983 0.14543360
0.72902899 0.28071503 0.16040579
0.06247025 0.09906999 0.10186264
0.10169072 0.10169072 0.10169072
0.18999886 0.11285199 0.10247232
0.29080174 0.13280156 0.10610460
0.39669714 0.15893761 0.11291259
0.50578319 0.18927842 0.12244467
0.59866993 0.22219455 0.13421136
0.66948713 0.25704499 0.14765357
0.72938819 0.29315721 0.16239984
0.12828315 0.21188723 0.11237101
0.14909974 0.21294646 0.11278654
0.21455197 0.21744391 0.11468855
0.30466585 0.22652580 0.11863666
0.40568620 0.24098188 0.12490067
0.51181560 0.26017665 0.13357938
0.60207572 0.28353103 0.14422328
0.67160743 0.31031521 0.15666900
0.73095624 0.33985450 0.17047636
0.19893474 0.33088136 0.13492964
0.21191615 0.33150072 0.13532784
0.25931685 0.33412029 0.13703476
0.33432491 0.33953559 0.14045729
0.42587289 0.34805498 0.14584835
0.52555942 0.36032043 0.15318288
0.60959430 0.37611801 0.16238690
0.67640201 0.39537043 0.17329437
0.73431199 0.41742884 0.18564938
0.27230841 0.45402660 0.16444425
0.28142655 0.45444836 0.16477792
0.31697119 0.45623693 0.16618957
0.37818857 0.45991089 0.16896390
0.45844703 0.46589286 0.17333876
0.54734459 0.47431022 0.17945917
0.62246671 0.48548756 0.18719716
0.68479606 0.49952098 0.19650950
0.73975394 0.51573481 0.20722448
0.34779268 0.57095624 0.19804346
0.35475293 0.57119756 0.19831180
0.38234154 0.57221938 0.19945295
0.43267685 0.57429658 0.20175891
0.50239999 0.57760155 0.20541734
0.57512347 0.58220085 0.21042878
0.63963724 0.58852138 0.21685639
0.69616924 0.59632798 0.22479217
0.74780552 0.60544684 0.23402808
0.42473285 0.65696686 0.23426185
0.43021620 0.65711310 0.23448270
0.45249457 0.65773736 0.23541923
0.49468442 0.65900535 0.23731218
0.55025140 0.66102924 0.24032511
0.60711243 0.66389638 0.24457894
0.66124434 0.66805086 0.25031237
0.71365744 0.67413931 0.25801794
0.76591484 0.68431467 0.26954007
0.50622586 0.72859990 0.27391030
0.51067098 0.72880271 0.27417577
0.52837498 0.72966810 0.27530446
0.56044258 0.73146687 0.27766803
0.60269318 0.73472697 0.28174812
0.65018326 0.74010028 0.28803090
0.70043939 0.74811635 0.29699664
0.75307746 0.75964458 0.30956368
0.80639817 0.77427938 0.32512253
0.60788134 0.81498212 0.33716273
0.61104053 0.81529887 0.33757624
0.62362982 0.81660913 0.33930258
0.64634207 0.81918830 0.34270421
0.67844283 0.82329868 0.34794892
0.71731925 0.82903205 0.35528075
0.75971437 0.83596224 0.36469357
0.80393922 0.84389296 0.37590079
0.84636726 0.85241541 0.38881482
0.05029643 0.02580052 0.22996733
0.09628185 0.03726374 0.22613331
0.18794535 0.06496734 0.21926332
0.28982293 0.09785378 0.21518177
0.39607272 0.13260291 0.21436274
0.50537649 0.16865108 0.21635524
0.59843833 0.20554889 0.22067212
0.66933920 0.24311975 0.22693938
0.72927717 0.28127563 0.23522402
0.07586906 0.10030090 0.22220072
0.10957688 0.10300604 0.22098254
0.19351425 0.11426833 0.21772396
0.29273112 0.13404396 0.21535743
0.39803478 0.15998958 0.21524873
0.50669874 0.19013745 0.21752103
0.59920052 0.22292875 0.22190163
0.66982113 0.25765999 0.22820821
0.72963873 0.29367251 0.23648905
0.13427444 0.21226162 0.21828599
0.15422823 0.21334420 0.21817271
0.21790971 0.21790971 0.21790971
0.30678460 0.22704297 0.21810025
0.40707967 0.24151903 0.21944449
0.51278593 0.26070678 0.22235957
0.60262927 0.28403357 0.22704332
0.67195774 0.31077929 0.23347976
0.73121576 0.34027830 0.24165166
0.20258157 0.33109124 0.22504202
0.21537065 0.33171603 0.22516190
0.26205420 0.33435838 0.22568969
0.33633391 0.33980011 0.22692707
0.42734075 0.34834514 0.22915820
0.52656731 0.36063804 0.23266712
0.61016634 0.37643468 0.23763753
0.67677463 0.39569287 0.24393965
0.73456757 0.41774145 0.25174345
0.27483339 0.45416793 0.24038028
0.28391157 0.45459185 0.24055418
0.31908083 0.45638911 0.24128287
0.37990607 0.46007801 0.24277428
0.45983174 0.46607375 0.24522254
0.54824967 0.47450627 0.24879751
0.62303023 0.48569851 0.25364072
0.68518246 0.49973775 0.25978839
0.74000581 0.51594510 0.26719007
0.34974815 0.57103722 0.26203753
0.35660141 0.57127926 0.26221353
0.38406319 0.57230320 0.26295024
0.43417436 0.57438474 0.26446591
0.50361374 0.57769512 0.26689870
0.57589795 0.58230013 0.27031125
0.64013837 0.58863002 0.27486458
0.69651751 0.59643891 0.28060665
0.74806172 0.60555730 0.28750382
0.42625173 0.65701602 0.28862200
0.43172785 0.65716281 0.28878870
0.45388962 0.65778781 0.28948050
0.49595284 0.65905754 0.29089483
0.55118648 0.66108449 0.29313472
0.60776458 0.66395679 0.29631548
0.66176060 0.66815189 0.30084948
0.71413842 0.67430861 0.30739114
0.76643478 0.68463662 0.31796514
0.50760610 0.72878008 0.32078584
0.51202900 0.72898651 0.32102810
0.52967117 0.72986092 0.32205848
0.56153624 0.73168978 0.32423503
0.60366932 0.73499171 0.32807374
0.65099465 0.74041798 0.33425866
0.70118651 0.74849922 0.34305665
0.75376836 0.76006838 0.35548486
0.80696476 0.77470125 0.37111341
0.60910347 0.81536183 0.38114332
0.61224069 0.81567709 0.38155217
0.62473748 0.81697785 0.38325240
0.64734988 0.81954432 0.38666473
0.67932358 0.82366082 0.39205256
0.71808212 0.82936216 0.39946797
0.76034249 0.83625883 0.40860438
0.80443565 0.84415347 0.41966292
0.84677816 0.85263816 0.43249050
0.07904181 0.04029698 0.35923930
0.11217906 0.04790870 0.35656557
0.19494066 0.07128939 0.34940902
0.29363237 0.10167563 0.34247315
0.39873536 0.13529747 0.33761814
0.50721629 0.17069744 0.33510954
0.59950749 0.20717135 0.33476741
0.67001978 0.24444070 0.33637252
0.72978303 0.28241090 0.33970621
0.09622995 0.10334132 0.35249781
0.12383274 0.10604142 0.35104149
0.20066306 0.11720482 0.34644727
0.29673819 0.13656700 0.34130291
0.40077529 0.16211836 0.33737983
0.50857535 0.19187343 0.33536298
0.60028461 0.22441098 0.33527657
0.67051069 0.25890486 0.33701989
0.73014898 0.29471514 0.34041046
0.14579910 0.21315154 0.34300489
0.16414199 0.21427028 0.34260184
0.22442583 0.21891235 0.34117386
0.31108430 0.22814427 0.33913864
0.40991780 0.24262760 0.33745015
0.51476461 0.26179886 0.33683329
0.60375364 0.28506379 0.33757176
0.67267804 0.31170531 0.33977847
0.73174151 0.34113559 0.34334372
0.20972098 0.33154610 0.34093111
0.22217110 0.33218174 0.34086086
0.26740354 0.33486384 0.34062069
0.34035310 0.34035310 0.34035310
0.43031261 0.34894449 0.34038823
0.52860401 0.36128813 0.34110032
0.61134830 0.37708055 0.34272634
0.67754074 0.39634900 0.34543738
0.73508716 0.41837670 0.34933563
0.27990810 0.45446564 0.34630863
0.28889816 0.45489382 0.34635261
0.32334614 0.45670718 0.34654950
0.38337517 0.46042461 0.34700954
0.46263179 0.46644598 0.34790344
0.55008504 0.47490780 0.34940827
0.62416541 0.48612905 0.35169727
0.68597431 0.50017941 0.35492124
0.74051631 0.51637160 0.35918007
0.35363482 0.57120532 0.35813896
0.36031001 0.57144880 0.35822723
0.38750970 0.57247746 0.35859864
0.43720554 0.57456741 0.35937130
0.50604584 0.57788852 0.36067073
0.57746143 0.58250637 0.36262593
0.64115476 0.58885327 0.36530781
0.69723553 0.59666510 0.36879371
0.74858262 0.60578447 0.37312804
0.42932507 0.65711749 0.37530122
0.43478658 0.65726452 0.37540201
0.45671691 0.65789180 0.37582395
0.49850387 0.65916577 0.37668655
0.55306190 0.66119826 0.37809603
0.60908021 0.66408065 0.38016386
0.66280979 0.66836194 0.38342707
0.71511729 0.67466035 0.38883066
0.76749570 0.68530153 0.39874559
0.51039300 0.72914786 0.39973490
0.51477214 0.72936247 0.39995696
0.53230785 0.73025436 0.40090367
0.56378265 0.73214050 0.40291772
0.60563382 0.73552671 0.40656703
0.65264790 0.74106072 0.41266190
0.70271926 0.74927618 0.42179851
0.75517530 0.76092854 0.43454099
0.80810882 0.77555291 0.45067794
0.61154951 0.81612289 0.45813336
0.61464343 0.81643389 0.45856319
0.62694685 0.81771836 0.46035265
0.64938783 0.82025865 0.46390818
0.68110784 0.82438579 0.46927330
0.71962398 0.83002528 0.47667722
0.76161021 0.83685509 0.48606101
0.80543894 0.84467675 0.49722769
0.84760592 0.85308609 0.50970216
0.10839649 0.05546712 0.49316338
0.13340209 0.06092161 0.49122671
0.20602797 0.08006007 0.48491083
0.30005839 0.10757689 0.47697617
0.40305118 0.13952919 0.46997355
0.51020500 0.17393795 0.46468679
0.60123351 0.20973806 0.46116825
0.67112116 0.24655127 0.45945385
0.73060004 0.28423097 0.45934501
0.12092895 0.10854560 0.48773828
0.14319516 0.11118713 0.48636629
0.21171341 0.12186692 0.48157203
0.30335885 0.14057210 0.47512284
0.40512096 0.16549047 0.46910032
0.51161520 0.19462875 0.46436258
0.60203059 0.22676043 0.46118422
0.67162536 0.26087441 0.45967062
0.73097383 0.29638610 0.45968590
0.16221091 0.21481609 0.47624377
0.17859081 0.21596721 0.47567237
0.23459819 0.22063173 0.47356661
0.31776349 0.22998210 0.47024114
0.41449220 0.24443607 0.46664740
0.51795789 0.26356129 0.46358260
0.60555266 0.28671738 0.46152408
0.67383963 0.31319007 0.46073011
0.73259040 0.34248914 0.46120063
0.22085735 0.33235371 0.46895521
0.23241679 0.33300398 0.46875693
0.27573910 0.33574018 0.46798388
0.34652064 0.34128653 0.46668465
0.43494745 0.34993846 0.46516252
0.53181246 0.36235175 0.46388081
0.61322997 0.37813040 0.46319841
0.67877046 0.39740870 0.46338521
0.73591973 0.41940043 0.46455334
0.28792295 0.45496956 0.46785514
0.29646750 0.45540418 0.46780605
0.33004264 0.45724118 0.46761837
0.38889306 0.46100019 0.46732433
0.46705868 0.46705868 0.46705868
0.55299283 0.47556208 0.46703370
0.62595415 0.48682532 0.46745195
0.68720192 0.50089006 0.46851028
0.74133384 0.51705466 0.47029369
0.35962572 0.57148434 0.47262681
0.36619895 0.57172937 0.47264415
0.39290760 0.57276505 0.47272289
0.44194927 0.57486732 0.47291033
0.50986956 0.57820392 0.47328774
0.57992198 0.58284331 0.47400280
0.64277582 0.58921301 0.47511557
0.69838258 0.59702941 0.47679261
0.74944066 0.60617339 0.47915099
0.43422406 0.65728342 0.48244531
0.43966180 0.65743111 0.48249475
0.46122287 0.65806137 0.48270269
0.50252285 0.65934096 0.48313585
0.55600069 0.66138372 0.48386515
0.61117618 0.66429708 0.48503471
0.66450174 0.66872834 0.48742507
0.71672986 0.67528420 0.49223721
0.76924551 0.68641636 0.50238768
0.51486035 0.72978771 0.50106085
0.51916469 0.73000648 0.50128721
0.53653498 0.73093937 0.50225819
0.56745569 0.73291598 0.50431768
0.60879323 0.73643691 0.50805544
0.65535236 0.74213387 0.51427750
0.70521979 0.75055947 0.52340335
0.75744296 0.76232043 0.53594151
0.80991679 0.77689834 0.55095269
0.61539480 0.81732144 0.55525889
0.61842258 0.81762561 0.55562594
0.63039960 0.81888554 0.55714666
0.65265382 0.82138461 0.56012901
0.68395688 0.82552703 0.56465687
0.72207631 0.83107157 0.57068730
0.76362252 0.83779605 0.57821507
0.80702535 0.84550366 0.58682111
0.84891661 0.85379611 0.59608954
0.13861179 0.07101169 0.60748286
0.15812446 0.07532492 0.60647233
0.22128262 0.09080090 0.60279890
0.30954223 0.11545866 0.59729393
0.40927138 0.14543507 0.59143875
0.51447134 0.17838825 0.58616037
0.60370393 0.21332513 0.58194071
0.67270437 0.24953854 0.57893139
0.73178150 0.28682299 0.57699438
0.14822960 0.11601422 0.60449348
0.16634822 0.11847542 0.60366938
0.22662344 0.12842901 0.60057280
0.31294188 0.14620797 0.59577670
0.41145772 0.17013711 0.59050831
0.51593575 0.19848314 0.58563877
0.60452229 0.22998463 0.58170792
0.67322545 0.26365218 0.57887081
0.73216348 0.29876700 0.57704940
0.18254471 0.21748136 0.59634279
0.19699407 0.21863129 0.59588287
0.24816119 0.22327803 0.59411301
0.32706538 0.23271458 0.59109926
0.42112298 0.24706379 0.58748713
0.52250000 0.26607647 0.58392726
0.60809874 0.28906800 0.58096285
0.67550044 0.31530407 0.57875760
0.73377654 0.34441994 0.57736733
0.23542638 0.33363887 0.58868861
0.24632684 0.33430493 0.58847244
0.28725936 0.33710000 0.58761782
0.35518899 0.34267352 0.58609496
0.44138743 0.35140893 0.58413741
0.53622237 0.36390234 0.58210240
0.61588004 0.37964663 0.58034113
0.68051468 0.39889841 0.57902930
0.73706907 0.42086762 0.57831424
0.29875030 0.45575154 0.58448614
0.30699706 0.45619330 0.58439610
0.33947890 0.45805978 0.58403425
0.39671269 0.46187114 0.58337957
0.47317489 0.46797309 0.58253455
0.55701043 0.47652677 0.58162212
0.62844000 0.48784198 0.58086887
0.68889348 0.50191695 0.58041183
0.74249909 0.51803857 0.58039054
0.36791969 0.57189455 0.58408705
0.37442872 0.57214174 0.58405922
0.40046166 0.57318573 0.58394779
0.44856722 0.57530299 0.58375196
0.51521635 0.57865873 0.58351740
0.58332487 0.58332487 0.58332487
0.64501024 0.58972524 0.58327470
0.70000180 0.59754534 0.58347719
0.75073571 0.60680140 0.58418947
0.44108961 0.65752516 0.58738603
0.44624922 0.65767402 0.58739048
0.46758330 0.65830773 0.58741179
0.50805217 0.65959534 0.58746914
0.56009738 0.66165320 0.58760364
0.61416938 0.66466394 0.58798120
0.66698391 0.66936278 0.58947403
0.71916648 0.67630376 0.59312974
0.77185335 0.68810068 0.60135217
0.52120626 0.73080444 0.59852759
0.52539607 0.73103932 0.59870982
0.54249790 0.73203661 0.59948899
0.57271124 0.73413330 0.60114205
0.61333091 0.73783607 0.60417774
0.65926853 0.74375526 0.60922982
0.70884982 0.75245532 0.61676210
0.76067645 0.76431808 0.62695512
0.81242830 0.77876172 0.63859553
0.62072863 0.81898475 0.64060778
0.62366100 0.81928261 0.64089616
0.63523957 0.82051523 0.64209420
0.65733234 0.82307701 0.64448905
0.68803485 0.82711933 0.64811310
0.72551110 0.83252720 0.65287939
0.76645263 0.83910992 0.65890643
0.80924042 0.84665631 0.66583229
0.85075754 0.85479214 0.67333847
0.16939449 0.08674698 0.69014757
0.18520599 0.09013699 0.68951871
0.23998240 0.10314220 0.68711997
0.32178452 0.12495808 0.68331979
0.41769966 0.15271585 0.67903804
0.52038404 0.18421104 0.67496786
0.60698821 0.21798915 0.67124245
0.67485438 0.25346939 0.66797346
0.73334393 0.29014800 0.66533862
0.17704800 0.12523672 0.68824969
0.19205401 0.12749988 0.68771094
0.24498368 0.13671415 0.68561421
0.32511318 0.15334880 0.68221985
0.41998451 0.17614049 0.67830375
0.52192181 0.20356257 0.67450266
0.60782495 0.23417298 0.67094544
0.67539535 0.26723858 0.66780553
0.73371610 0.30189583 0.66526847
0.20593761 0.22120742 0.68251115
0.21859435 0.22233609 0.68217967
0.26501566 0.22701068 0.68086788
0.33918062 0.23647062 0.67858631
0.42990098 0.25061465 0.67575762
0.52855343 0.26939724 0.67278138
0.61148309 0.29215226 0.66986727
0.67774276 0.31811064 0.66720649
0.73531009 0.34697193 0.66504727
0.25322301 0.33551096 0.67632641
0.26327741 0.33619142 0.67615371
0.30149808 0.33903589 0.67545196
0.36646189 0.34459428 0.67417802
0.44980899 0.35342456 0.67242357
0.54196064 0.36598350 0.67041886
0.61933480 0.38167404 0.66833076
0.68284110 0.40085840 0.66643003
0.73858298 0.42281108 0.66487837
0.31248150 0.45686398 0.67182755
0.32032383 0.45731385 0.67173716
0.35126989 0.45921266 0.67136686
0.40654936 0.46308143 0.67066549
0.48115248 0.46920962 0.66966086
0.56228177 0.47783089 0.66844823
0.63164605 0.48920180 0.66721186
0.69100421 0.50327792 0.66607055
0.74403156 0.51933587 0.66516918
0.37886151 0.57247891 0.66946212
0.38511228 0.57272863 0.66941708
0.41039686 0.57378201 0.66923044
0.45715433 0.57591628 0.66887678
0.52208515 0.57929279 0.66838025
0.58795365 0.58399788 0.66780849
0.64795814 0.59042731 0.66720860
0.70217455 0.59824737 0.66669728
0.75249456 0.60770607 0.66668298
0.44968485 0.65785779 0.66940955
0.45474160 0.65800758 0.66939350
0.47589535 0.65864782 0.66932719
0.51515053 0.65994830 0.66920611
0.56535354 0.66202837 0.66905399
0.61825181 0.66524176 0.66918866
0.67031541 0.67031541 0.67031541
0.72244839 0.67778345 0.67327946
0.77539594 0.69046450 0.68017421
0.52952002 0.73225494 0.67693424
0.53370172 0.73250909 0.67708732
0.55016623 0.73358428 0.67775557
0.57954044 0.73583375 0.67917628
0.61927449 0.73976958 0.68182139
0.66445316 0.74597196 0.68629028
0.71373905 0.75499733 0.69310833
0.76493327 0.76693803 0.70241714
0.81566174 0.78115441 0.71330098
0.62742597 0.82111565 0.71416153
0.63019760 0.82141140 0.71442022
0.64143349 0.82268355 0.71548589
0.66310857 0.82523348 0.71759116
0.69338326 0.82914469 0.72079345
0.72987357 0.83439160 0.72507897
0.77015288 0.84079290 0.73030873
0.81209560 0.84813309 0.73637600
0.85312734 0.85607068 0.74284835
0.20068128 0.10276229 0.75869013
0.21384545 0.10557670 0.75826557
0.26157851 0.11656970 0.75661393
0.33698360 0.13587100 0.75373596
0.42860505 0.16150241 0.75013264
0.52791413 0.19128190 0.74638640
0.61124759 0.22386998 0.74283985
0.67758266 0.25833787 0.73970019
0.73525056 0.29420491 0.73697473
0.20700738 0.13612714 0.75738460
0.21974026 0.13816337 0.75700227
0.26609326 0.14654355 0.75548525
0.34026624 0.16197376 0.75282257
0.43096117 0.18354207 0.74945938
0.52945614 0.20981893 0.74591709
0.61212167 0.23947838 0.74252718
0.67814492 0.27170960 0.73949610
0.73563111 0.30583541 0.73685268
0.23154596 0.22609666 0.75302865
0.24273759 0.22722545 0.75275112
0.28454081 0.23189577 0.75165389
0.35363470 0.24122359 0.74966254
0.44063782 0.25514869 0.74705578
0.53598063 0.27359495 0.74419554
0.61590637 0.29601380 0.74135304
0.68057304 0.32163454 0.73872997
0.73720707 0.35018199 0.73639778
0.27380238 0.33808751 0.74741444
0.28304146 0.33877931 0.74724834
0.31847562 0.34159975 0.74658055
0.37987033 0.34715617 0.74533858
0.46041715 0.35606845 0.74362332
0.54891656 0.36863444 0.74163159
0.62368414 0.38427600 0.73954274
0.68575798 0.40334755 0.73753442
0.74049291 0.42527977 0.73571381
0.32874629 0.45838986 0.74262374
0.33621000 0.45884827 0.74253122
0.36565936 0.46077964 0.74215203
0.41860704 0.46470734 0.74142845
0.49111508 0.47083016 0.74039417
0.56866093 0.47953551 0.73912384
0.63565072 0.49095740 0.73774616
0.69357839 0.50501511 0.73637376
0.74597366 0.52098231 0.73511419
0.39195720 0.57326298 0.73939225
0.39795088 0.57351465 0.73934164
0.42236928 0.57457799 0.73913067
0.46776972 0.57672844 0.73872224
0.53038515 0.58012500 0.73812777
0.59361576 0.58488154 0.73739927
0.65175239 0.59133130 0.73657317
0.70487304 0.59915477 0.73574534
0.75492407 0.60908236 0.73573197
0.46049040 0.65831319 0.73784876
0.46549936 0.65846529 0.73782361
0.48613443 0.65911341 0.73771904
0.52391808 0.66042714 0.73751829
0.57178997 0.66257407 0.73728197
0.62332664 0.66604445 0.73744422
0.67431613 0.67159047 0.73881583
0.72673847 0.67992173 0.74239046
0.77989845 0.69371073 0.74998579
0.54014808 0.73438534 0.74507750
0.54411087 0.73466040 0.74524685
0.55960287 0.73582637 0.74597061
0.58811033 0.73825474 0.74750858
0.62676341 0.74243714 0.75031724
0.67092745 0.74898289 0.75494477
0.71984462 0.75826899 0.76158398
0.77014141 0.77014141 0.77014141
0.81970443 0.78401523 0.77998704
0.63542520 0.82385805 0.78008141
0.63810558 0.82415613 0.78031940
0.64907536 0.82539336 0.78130572
0.66978839 0.82783860 0.78324278
0.69928776 0.83159856 0.78618125
0.73521865 0.83665687 0.79004874
0.77473518 0.84285110 0.79462545
0.81557344 0.84992526 0.79971602
0.85603869 0.85763808 0.80520485
0.23234794 0.11899526 0.81622897
0.24365137 0.12137659 0.81594451
0.28552293 0.13088466 0.81481516
0.35452305 0.14799145 0.81278529
0.44153100 0.17141278 0.81007747
0.53688310 0.19951182 0.80702327
0.61653052 0.23069150 0.80391958
0.68110560 0.26415541 0.80095716
0.73752500 0.29909807 0.79824976
0.23779922 0.14820548 0.81534382
0.24865902 0.15005255 0.81507913
0.28970230 0.15764072 0.81402164
0.35767646 0.17184558 0.81210869
0.44380138 0.19206690 0.80953793
0.53838367 0.21715473 0.80661356
0.61741571 0.24584857 0.80361878
0.68168828 0.27719880 0.80074201
0.73789985 0.31060272 0.79810084
0.25897918 0.23234111 0.81222391
0.26886509 0.23346014 0.81201777
0.30646832 0.23807522 0.81119108
0.37073463 0.24700868 0.80965637
0.45344602 0.26074796 0.80753998
0.54466125 0.27879677 0.80506533
0.62118594 0.30077025 0.80246306
0.68415739 0.32599093 0.79991343
0.73949321 0.35409181 0.79752925
0.29665331 0.34138259 0.80776029
0.30506061 0.34205630 0.80762094
0.33797679 0.34482599 0.80705463
0.39578013 0.35042891 0.80598478
0.47289984 0.35940091 0.80445515
0.55721464 0.37189799 0.80259672
0.62876331 0.38749476 0.80057477
0.68926590 0.40642324 0.79852934
0.74280780 0.42830297 0.79657283
0.34746851 0.46038382 0.80332644
0.35438516 0.46085003 0.80323909
0.38219273 0.46281172 0.80287798
0.43296057 0.46676274 0.80218424
0.50286003 0.47289233 0.80117087
0.57607875 0.48167433 0.79989143
0.64041928 0.49313292 0.79845548
0.69691546 0.50713686 0.79695576
0.74834219 0.52298740 0.79548709
0.40741597 0.57428183 0.79976991
0.41317819 0.57453568 0.79971693
0.43656711 0.57560668 0.79949527
0.48041938 0.57777145 0.79906290
0.54001185 0.58118429 0.79842087
0.60023420 0.58601024 0.79760817
0.65635748 0.59246183 0.79665470
0.70839319 0.60035215 0.79571821
0.75819343 0.61111333 0.79625021
0.47346440 0.65889793 0.79741496
0.47830843 0.65905148 0.79738500
0.49821548 0.65970716 0.79726042
0.53403891 0.66106385 0.79704369
0.57955268 0.66340684 0.79691034
0.62950391 0.66731891 0.79736985
0.67937263 0.67336575 0.79927411
0.73228776 0.68284347 0.80362764
0.78557345 0.69801454 0.81144760
0.55254973 0.73710341 0.80581983
0.55622395 0.73740551 0.80600299
0.57112718 0.73867928 0.80678006
0.59842132 0.74132209 0.80840140
0.63572173 0.74581856 0.81124115
0.67902743 0.75276812 0.81567884
0.72712559 0.76234761 0.82189928
0.77656001 0.77405970 0.82960583
0.82466296 0.78741478 0.83803021
0.64476118 0.82705449 0.83768254
0.64737627 0.82733855 0.83788494
0.65832724 0.82851579 0.83872562
0.67777004 0.83084628 0.84038128
0.70622691 0.83443793 0.84290787
0.74142422 0.83929123 0.84624726
0.78010131 0.84523350 0.85022552
0.81982994 0.85202860 0.85469334
0.85947588 0.85947824 0.85947783
