Android/app/src/main/assets/LUTs/BT709_to_HLG.cube
TITLE "BT709_to_HLG"
LUT_3D_SIZE 65
# BT709 SDR to BT2020 HLG with reference white 75% (Full Range in - Full Range out)
0.00819792 0.00242625 0.00043791
0.00905835 0.00289278 0.00107100
0.01858871 0.00607219 0.00265007
0.02916544 0.00974503 0.00453822
0.03985998 0.01320365 0.00629486
0.05104906 0.01689634 0.00825676
0.06243258 0.02056517 0.01006754
0.07427659 0.02439964 0.01198812
0.08591333 0.02829814 0.01375700
0.09777804 0.03227389 0.01567336
0.10973012 0.03632576 0.01765189
0.12188570 0.04026641 0.01961487
0.13410790 0.04428091 0.02155613
0.14644748 0.04832716 0.02352907
0.15889518 0.05248668 0.02550735
0.17142602 0.05684621 0.02758265
0.18402427 0.06088992 0.02962403
0.19673873 0.06516090 0.03167588
0.20951867 0.06950428 0.03371885
0.22237748 0.07383108 0.03585154
0.23530473 0.07813642 0.03787528
0.24829073 0.08239704 0.03991689
0.26133621 0.08668284 0.04205372
0.27442884 0.09103433 0.04410175
0.28754620 0.09539810 0.04625194
0.30076383 0.09978661 0.04832175
0.31400619 0.10415658 0.05045987
0.32731394 0.10861871 0.05270686
0.34065069 0.11304890 0.05493275
0.35404848 0.11748715 0.05709050
0.36748439 0.12191989 0.05924922
0.38096953 0.12644474 0.06139642
0.39449512 0.13093914 0.06357702
0.40807140 0.13545014 0.06585027
0.42167265 0.13991825 0.06812378
0.43535133 0.14447253 0.07037865
0.44905200 0.14901068 0.07262366
0.46276734 0.15359309 0.07486575
0.47658738 0.15820028 0.07709754
0.49049987 0.16277816 0.07929649
0.50426921 0.16737211 0.08154606
0.51755139 0.17193973 0.08376922
0.53046987 0.17654651 0.08600008
0.54290099 0.18119084 0.08824694
0.55476824 0.18580745 0.09046922
0.56607049 0.19050063 0.09276112
0.57694509 0.19519663 0.09506710
0.58747229 0.19986281 0.09734521
0.59779249 0.20454676 0.09962744
0.60778125 0.20921487 0.10189511
0.61746820 0.21386185 0.10413828
0.62672382 0.21859004 0.10646251
0.63553231 0.22331122 0.10878616
0.64415328 0.22801025 0.11108782
0.65242615 0.23276928 0.11339639
0.66071406 0.23755008 0.11570563
0.66893135 0.24231519 0.11799523
0.67684335 0.24708399 0.12030023
0.68420889 0.25188406 0.12266029
0.69187616 0.25666969 0.12500666
0.69993720 0.26144090 0.12733482
0.70726241 0.26623834 0.12967577
0.71443971 0.27103433 0.13201256
0.72169846 0.27581432 0.13433196
0.72896984 0.28058096 0.13663559
0.00606003 0.01065425 0.00302835
0.01092032 0.01113453 0.00343906
0.02012946 0.01386668 0.00486498
0.02981630 0.01542259 0.00600730
0.04037910 0.01859485 0.00760811
0.05141649 0.02132953 0.00928952
0.06272103 0.02442929 0.01090811
0.07450408 0.02773158 0.01265133
0.08610841 0.03125254 0.01434555
0.09794036 0.03483640 0.01618142
0.10987562 0.03857800 0.01812675
0.12200360 0.04222085 0.02000283
0.13421833 0.04602229 0.02191388
0.14654590 0.04998453 0.02385301
0.15898481 0.05404603 0.02581232
0.17150675 0.05817267 0.02785447
0.18409911 0.06218521 0.02987437
0.19680772 0.06640284 0.03191029
0.20958283 0.07067001 0.03394245
0.22243478 0.07485007 0.03604670
0.23535963 0.07910449 0.03806010
0.24834304 0.08332090 0.04009321
0.26138493 0.08754596 0.04221980
0.27447614 0.09187058 0.04425979
0.28759173 0.09620253 0.04639413
0.30080745 0.10054212 0.04846328
0.31404794 0.10486654 0.05059970
0.32735333 0.10929576 0.05284300
0.34068833 0.11369987 0.05506443
0.35408429 0.11810352 0.05720888
0.36751890 0.12251171 0.05935866
0.38100230 0.12700597 0.06150401
0.39452658 0.13147695 0.06368342
0.40810184 0.13597439 0.06595414
0.42170197 0.14042778 0.06822411
0.43537975 0.14496534 0.07047517
0.44907860 0.14947318 0.07271332
0.46279328 0.15404443 0.07495197
0.47661198 0.15863353 0.07717926
0.49052322 0.16320111 0.07937566
0.50429089 0.16778200 0.08162250
0.51757134 0.17233084 0.08384227
0.53048910 0.17693203 0.08607219
0.54291895 0.18156158 0.08831726
0.55478495 0.18616504 0.09053800
0.56608625 0.19085167 0.09282835
0.57695962 0.19553237 0.09513074
0.58748597 0.20018846 0.09740634
0.59780554 0.20486951 0.09968795
0.60779339 0.20952959 0.10195428
0.61747966 0.21417142 0.10419652
0.62673456 0.21889359 0.10651980
0.63554218 0.22360086 0.10884143
0.64416272 0.22828893 0.11114149
0.65243558 0.23304479 0.11344941
0.66072283 0.23781707 0.11575712
0.66893929 0.24257203 0.11804504
0.67685105 0.24733755 0.12034932
0.68421631 0.25213537 0.12270853
0.69188309 0.25691684 0.12505360
0.69994383 0.26168563 0.12738084
0.70726909 0.26648100 0.12972119
0.71444630 0.27127036 0.13205667
0.72170487 0.27604281 0.13437463
0.72897615 0.28080589 0.13667752
0.01276960 0.02153314 0.00647985
0.01702490 0.02184391 0.00677491
0.02177888 0.02214763 0.00706387
0.03145945 0.02360872 0.00810788
0.04106001 0.02479628 0.00908012
0.05202558 0.02713139 0.01057443
0.06313193 0.02926103 0.01189453
0.07487895 0.03217370 0.01351748
0.08639527 0.03501492 0.01507823
0.09820257 0.03832533 0.01687144
0.11009968 0.04160374 0.01872319
0.12220375 0.04509796 0.02056299
0.13438747 0.04861155 0.02240362
0.14669844 0.05241473 0.02430374
0.15911562 0.05617235 0.02621839
0.17163104 0.06012910 0.02823854
0.18421321 0.06408281 0.03022851
0.19691158 0.06817225 0.03223846
0.20967724 0.07230818 0.03425063
0.22252629 0.07640613 0.03633808
0.23544168 0.08051445 0.03832593
0.24841965 0.08464826 0.04034262
0.26145815 0.08881280 0.04246200
0.27454546 0.09306353 0.04447530
0.28765993 0.09736390 0.04660073
0.30087086 0.10162672 0.04866645
0.31410915 0.10590031 0.05080182
0.32741130 0.11027703 0.05303967
0.34074378 0.11464256 0.05525155
0.35413715 0.11900516 0.05737858
0.36756960 0.12337305 0.05951760
0.38105049 0.12782161 0.06166033
0.39457321 0.13226523 0.06383836
0.40814582 0.13673323 0.06610326
0.42174557 0.14118010 0.06837129
0.43541963 0.14565460 0.07060957
0.44911817 0.15015409 0.07284457
0.46283053 0.15469380 0.07507658
0.47664898 0.15927267 0.07730059
0.49055891 0.16382828 0.07949369
0.50432329 0.16838358 0.08173461
0.51760256 0.17292429 0.08395237
0.53051756 0.17749208 0.08617758
0.54294521 0.18210045 0.08841993
0.55480969 0.18669474 0.09063950
0.56610892 0.19135703 0.09292468
0.57698140 0.19603178 0.09522515
0.58750697 0.20068185 0.09749884
0.59782467 0.20534079 0.09977667
0.60781153 0.20999518 0.10204173
0.61749683 0.21463087 0.10428268
0.62674989 0.21932745 0.10660239
0.63555667 0.22402733 0.10892294
0.64417698 0.22871054 0.11122222
0.65244884 0.23344528 0.11352659
0.66073524 0.23820424 0.11583188
0.66895141 0.24295626 0.11811913
0.67686240 0.24771243 0.12042144
0.68422636 0.25250059 0.12277794
0.69189321 0.25728197 0.12512255
0.69995377 0.26204901 0.12744896
0.70727872 0.26683170 0.12978708
0.71445582 0.27161179 0.13212092
0.72171442 0.27638255 0.13443834
0.72898549 0.28113977 0.13673996
0.02003735 0.03368591 0.01042923
0.02248809 0.03381460 0.01056255
0.02718164 0.03411193 0.01081944
0.03399342 0.03456194 0.01125058
0.04352171 0.03573350 0.01210859
0.05370111 0.03701132 0.01308863
0.06446456 0.03869437 0.01421132
0.07586970 0.04067840 0.01552745
0.08723524 0.04307037 0.01697969
0.09888516 0.04550759 0.01855620
0.11071075 0.04844867 0.02028018
0.12267870 0.05111747 0.02184260
0.13484149 0.05470911 0.02366082
0.14710108 0.05796159 0.02547204
0.15947777 0.06130351 0.02730882
0.17195083 0.06484085 0.02921426
0.18451142 0.06872002 0.03114827
0.19718607 0.07248964 0.03310189
0.20992853 0.07624808 0.03506793
0.22274821 0.07998314 0.03703944
0.23565536 0.08394900 0.03900786
0.24862171 0.08793165 0.04100199
0.26164769 0.09197103 0.04309409
0.27472829 0.09609267 0.04507880
0.28783496 0.10020801 0.04713841
0.30103861 0.10436780 0.04920277
0.31426786 0.10851676 0.05132887
0.32756313 0.11275779 0.05355371
0.34088857 0.11700280 0.05574474
0.35427539 0.12128896 0.05782790
0.36770149 0.12557792 0.05992919
0.38117712 0.12992698 0.06206799
0.39469425 0.13426981 0.06423923
0.40826289 0.13869764 0.06649607
0.42185677 0.14308636 0.06874883
0.43552857 0.14751113 0.07097497
0.44922072 0.15189736 0.07318427
0.46292963 0.15637229 0.07540089
0.47674411 0.16086834 0.07760975
0.49064879 0.16536230 0.07979181
0.50440703 0.16989716 0.08202372
0.51767939 0.17439568 0.08422897
0.53059084 0.17894041 0.08644945
0.54301399 0.18350301 0.08868666
0.55487323 0.18804012 0.09089993
0.56616828 0.19267262 0.09317887
0.57703566 0.19729254 0.09546711
0.58755689 0.20189401 0.09772974
0.59787294 0.20654913 0.10000557
0.60785764 0.21118335 0.10226610
0.61754101 0.21579984 0.10450290
0.62679107 0.22047266 0.10681877
0.63559436 0.22512750 0.10913257
0.64421227 0.22976115 0.11142442
0.65248403 0.23448327 0.11372620
0.66076879 0.23921744 0.11602689
0.66898234 0.24393189 0.11830783
0.67689222 0.24867005 0.12060644
0.68425539 0.25345310 0.12296035
0.69192026 0.25821997 0.12530011
0.69997891 0.26297446 0.12762215
0.70730397 0.26774755 0.12995825
0.71448087 0.27250815 0.13228885
0.72173878 0.27725191 0.13460198
0.72900924 0.28199076 0.13690062
0.02742396 0.04590048 0.01412549
0.02969713 0.04601785 0.01423333
0.03242882 0.04616677 0.01436507
0.03911646 0.04664190 0.01477051
0.04633984 0.04716720 0.01521626
0.05626642 0.04825347 0.01605587
0.06621515 0.04920936 0.01686699
0.07738151 0.05078441 0.01806970
0.08834401 0.05232779 0.01921524
0.09993773 0.05459768 0.02067426
0.11157466 0.05695729 0.02212518
0.12347428 0.05946152 0.02364376
0.13550566 0.06211657 0.02527853
0.14767997 0.06493808 0.02696171
0.15997524 0.06786866 0.02865807
0.17242039 0.07125594 0.03049176
0.18493821 0.07462078 0.03235350
0.19756782 0.07796059 0.03420941
0.21027183 0.08131112 0.03608601
0.22308517 0.08496412 0.03801810
0.23595664 0.08857726 0.03991583
0.24890091 0.09230098 0.04184338
0.26191363 0.09618843 0.04390350
0.27497668 0.10004486 0.04585196
0.28807787 0.10398439 0.04786597
0.30126440 0.10795640 0.04991548
0.31448455 0.11197808 0.05201982
0.32776877 0.11602973 0.05419542
0.34108459 0.12012289 0.05636838
0.35446239 0.12431063 0.05841570
0.36787993 0.12849676 0.06047933
0.38134744 0.13271430 0.06261248
0.39485902 0.13695196 0.06477518
0.40841865 0.14126053 0.06700803
0.42201006 0.14561345 0.06925220
0.43567114 0.14990920 0.07144847
0.44936188 0.15426190 0.07364402
0.46306176 0.15859936 0.07583444
0.47687520 0.16304182 0.07803306
0.49077481 0.16747712 0.08020362
0.50452231 0.17195257 0.08241560
0.51779005 0.17642979 0.08461175
0.53069185 0.18087736 0.08681618
0.54310759 0.18537893 0.08904558
0.55496101 0.18988144 0.09125473
0.56624783 0.19440180 0.09351460
0.57711236 0.19899960 0.09579774
0.58763064 0.20357292 0.09805406
0.59794030 0.20817075 0.10031585
0.60792165 0.21279303 0.10257157
0.61760180 0.21739232 0.10480294
0.62684548 0.22197700 0.10710613
0.63564630 0.22661282 0.10941717
0.64426359 0.23123099 0.11170657
0.65253126 0.23587553 0.11399508
0.66081324 0.24057256 0.11628874
0.66902516 0.24527064 0.11856644
0.67693226 0.24997177 0.12085812
0.68429159 0.25471439 0.12320357
0.69195615 0.25947644 0.12554052
0.70001414 0.26422440 0.12785934
0.70733760 0.26896038 0.13018705
0.71451408 0.27369880 0.13251305
0.72177186 0.27843154 0.13482408
0.72904155 0.28315008 0.13711928
0.03518939 0.05897307 0.01814708
0.03688058 0.05905600 0.01822653
0.03925227 0.05918415 0.01834068
0.04438355 0.05950611 0.01863670
0.05130816 0.05997855 0.01904437
0.05952941 0.06056898 0.01956981
0.06939612 0.06153488 0.02035901
0.07951166 0.06249579 0.02119386
0.09037785 0.06395981 0.02227804
0.10150536 0.06546784 0.02339098
0.11301807 0.06744906 0.02472721
0.12469455 0.06946734 0.02608934
0.13656415 0.07178218 0.02755616
0.14859600 0.07417004 0.02907111
0.16081521 0.07678072 0.03067793
0.17315570 0.07946233 0.03233592
0.18561142 0.08242247 0.03412346
0.19817099 0.08534304 0.03585083
0.21083934 0.08850730 0.03763384
0.22360133 0.09175967 0.03944947
0.23643160 0.09505568 0.04127578
0.24933906 0.09849598 0.04313864
0.26232646 0.10211494 0.04511514
0.27536495 0.10570811 0.04703557
0.28845872 0.10950991 0.04898753
0.30162108 0.11318421 0.05101102
0.31482698 0.11705117 0.05309454
0.32809314 0.12090127 0.05518173
0.34139601 0.12480644 0.05731125
0.35475704 0.12878212 0.05930929
0.36816231 0.13284485 0.06133555
0.38161584 0.13690908 0.06345591
0.39511775 0.14100606 0.06560388
0.40866450 0.14512225 0.06779816
0.42224758 0.14935144 0.07001845
0.43589742 0.15354113 0.07218471
0.44958010 0.15779860 0.07434211
0.46327077 0.16200987 0.07649833
0.47707683 0.16630635 0.07867336
0.49096673 0.17063408 0.08082518
0.50469677 0.17497998 0.08300650
0.51795654 0.17943035 0.08518898
0.53084907 0.18383168 0.08738064
0.54325248 0.18824079 0.08959609
0.55509542 0.19266808 0.09179587
0.56637317 0.19709137 0.09403843
0.57722908 0.20158540 0.09630103
0.58774084 0.20608626 0.09854239
0.59804298 0.21062172 0.10079096
0.60801889 0.21520985 0.10303680
0.61769513 0.21979013 0.10526165
0.62693158 0.22431671 0.10755385
0.63572596 0.22887806 0.10985308
0.64434073 0.23344468 0.11213419
0.65260628 0.23803495 0.11441282
0.66088285 0.24265806 0.11669310
0.66909048 0.24730503 0.11896116
0.67699405 0.25195141 0.12124286
0.68434798 0.25661898 0.12357553
0.69201126 0.26135397 0.12590725
0.70006792 0.26607605 0.12822109
0.70739038 0.27078694 0.13054107
0.71456544 0.27549651 0.13285777
0.72182251 0.28021766 0.13516402
0.72909100 0.28492403 0.13745438
0.04265018 0.07210999 0.02208109
0.04405697 0.07217589 0.02214308
0.04588403 0.07226575 0.02222319
0.05065824 0.07252289 0.02246052
0.05627966 0.07284997 0.02274994
0.06433401 0.07342098 0.02325129
0.07278004 0.07402355 0.02377010
0.08269910 0.07498797 0.02456977
0.09272104 0.07595764 0.02538589
0.10366633 0.07727542 0.02646366
0.11481635 0.07872712 0.02760547
0.12628501 0.08034470 0.02881469
0.13796476 0.08220183 0.03013191
0.14983429 0.08419085 0.03150419
0.16184582 0.08623780 0.03289185
0.17413111 0.08873300 0.03452356
0.18649337 0.09130530 0.03615685
0.19896903 0.09389495 0.03775794
0.21154214 0.09657723 0.03937166
0.22426430 0.09964796 0.04115512
0.23703877 0.10264634 0.04286833
0.24991076 0.10581649 0.04470283
0.26286122 0.10913083 0.04654904
0.27587043 0.11243161 0.04842045
0.28894069 0.11597301 0.05035327
0.30207490 0.11943790 0.05235296
0.31525722 0.12298989 0.05438988
0.32850215 0.12662654 0.05636057
0.34178509 0.13036769 0.05839523
0.35512716 0.13413904 0.06036391
0.36851429 0.13795991 0.06237632
0.38195170 0.14186526 0.06448105
0.39544027 0.14585000 0.06660718
0.40897154 0.14980495 0.06875249
0.42254470 0.15385920 0.07092772
0.43617888 0.15785470 0.07305697
0.44985334 0.16204325 0.07518674
0.46353081 0.16615542 0.07730918
0.47733042 0.17033254 0.07946052
0.49120836 0.17451667 0.08158983
0.50492162 0.17873393 0.08374694
0.51816667 0.18305900 0.08590126
0.53104298 0.18735699 0.08806886
0.54343233 0.19170682 0.09027051
0.55526302 0.19607467 0.09246000
0.56652785 0.20037253 0.09467727
0.57737506 0.20477588 0.09692090
0.58787905 0.20918356 0.09914335
0.59817269 0.21361183 0.10137722
0.60814174 0.21814529 0.10361218
0.61781122 0.22266719 0.10582519
0.62703775 0.22714422 0.10809951
0.63582545 0.23165970 0.11038832
0.64443685 0.23617073 0.11265827
0.65269785 0.24067097 0.11492191
0.66096912 0.24522287 0.11718962
0.66917205 0.24981574 0.11944796
0.67707173 0.25440289 0.12171940
0.68442148 0.25900962 0.12404197
0.69208191 0.26368892 0.12636384
0.70013524 0.26835222 0.12866772
0.70745620 0.27302008 0.13097722
0.71463045 0.27770518 0.13328574
0.72188597 0.28240708 0.13558405
0.72915228 0.28709353 0.13786643
0.05075011 0.08540325 0.02620625
0.05186715 0.08545436 0.02625915
0.05351548 0.08553336 0.02633420
0.05752944 0.08572750 0.02653252
0.06266988 0.08601174 0.02680252
0.06932820 0.08639999 0.02718409
0.07760256 0.08697775 0.02770928
0.08617221 0.08760200 0.02828240
0.09612250 0.08852391 0.02907650
0.10631816 0.08948134 0.02991743
0.11722516 0.09073284 0.03091473
0.12839078 0.09207057 0.03195937
0.13982360 0.09361444 0.03312516
0.15147687 0.09530293 0.03437367
0.16336006 0.09718594 0.03571470
0.17541603 0.09920101 0.03709397
0.18766968 0.10150153 0.03857684
0.20003622 0.10380575 0.04005410
0.21253425 0.10624873 0.04156966
0.22515961 0.10887002 0.04328604
0.23786365 0.11155955 0.04488878
0.25065500 0.11437528 0.04663685
0.26356517 0.11745107 0.04838208
0.27652904 0.12049162 0.05018810
0.28957670 0.12374252 0.05211469
0.30268013 0.12693571 0.05401010
0.31583064 0.13031500 0.05600312
0.32904846 0.13371217 0.05787633
0.34230350 0.13717373 0.05978923
0.35562151 0.14075189 0.06173609
0.36898257 0.14437511 0.06372818
0.38239964 0.14807525 0.06580823
0.39586662 0.15184517 0.06789883
0.40938066 0.15565561 0.06998714
0.42293549 0.15953407 0.07209111
0.43655489 0.16335158 0.07418205
0.45021231 0.16733063 0.07626333
0.46387276 0.17127901 0.07834550
0.47766343 0.17535133 0.08046723
0.49152179 0.17940786 0.08256394
0.50521022 0.18346243 0.08468506
0.51844045 0.18765318 0.08681548
0.53129970 0.19181263 0.08896123
0.54367040 0.19607364 0.09114548
0.55548141 0.20035998 0.09331599
0.56673083 0.20457522 0.09550198
0.57756598 0.20887133 0.09772056
0.58805807 0.21315100 0.09991547
0.59833878 0.21743433 0.10212944
0.60830006 0.22187741 0.10435243
0.61796189 0.22629517 0.10655180
0.62717643 0.23069247 0.10880183
0.63595546 0.23517331 0.11107667
0.64456193 0.23964503 0.11333088
0.65281890 0.24408155 0.11558261
0.66108378 0.24855880 0.11783721
0.66927845 0.25305225 0.12007720
0.67717128 0.25753907 0.12233010
0.68451525 0.26206369 0.12463735
0.69217231 0.26668040 0.12694874
0.70022181 0.27127692 0.12924217
0.70754086 0.27587074 0.13153921
0.71471433 0.28051416 0.13383813
0.72196827 0.28518523 0.13612678
0.72923223 0.28984084 0.13839946
0.05901682 0.09885583 0.03038873
0.05995347 0.09890103 0.03043240
0.06126066 0.09896424 0.03049104
0.06469101 0.09913558 0.03065493
0.06906359 0.09935592 0.03085925
0.07560603 0.09973359 0.03121090
0.08244887 0.10016191 0.03160222
0.09090124 0.10077968 0.03215716
0.09975901 0.10142965 0.03273582
0.10980554 0.10234338 0.03353878
0.12007015 0.10331740 0.03439248
0.13096130 0.10447335 0.03536978
0.14213693 0.10578410 0.03640428
0.15354488 0.10720729 0.03749893
0.16513696 0.10873596 0.03862814
0.17707709 0.11056501 0.03990456
0.18915880 0.11253591 0.04127672
0.20137454 0.11456170 0.04262074
0.21370610 0.11665174 0.04402902
0.22627130 0.11906014 0.04569718
0.23889497 0.12148180 0.04721843
0.25161431 0.12401474 0.04880891
0.26445394 0.12677604 0.05052789
0.27735354 0.12955492 0.05227490
0.29034411 0.13251014 0.05414745
0.30340950 0.13546348 0.05592393
0.31652315 0.13848068 0.05779371
0.32970728 0.14165485 0.05958991
0.34292715 0.14488259 0.06141418
0.35621928 0.14825565 0.06334861
0.36954694 0.15165097 0.06530208
0.38294007 0.15516316 0.06733928
0.39638141 0.15869204 0.06938212
0.40987344 0.16231490 0.07141546
0.42340988 0.16605265 0.07344940
0.43700756 0.16973399 0.07548925
0.45064910 0.17352047 0.07752828
0.46428486 0.17721825 0.07955918
0.47806831 0.18118005 0.08165074
0.49190572 0.18511444 0.08371572
0.50556692 0.18907665 0.08581032
0.51877244 0.19307585 0.08789856
0.53160566 0.19702597 0.09001005
0.54395606 0.20116293 0.09217836
0.55574587 0.20530863 0.09432968
0.56697432 0.20940447 0.09647651
0.57779631 0.21363710 0.09866661
0.58827552 0.21783961 0.10083015
0.59854470 0.22202232 0.10302902
0.60849351 0.22632576 0.10523337
0.61814366 0.23060173 0.10741398
0.62734251 0.23485731 0.10963391
0.63611162 0.23928025 0.11188741
0.64471259 0.24367794 0.11411700
0.65296251 0.24804153 0.11634823
0.66122106 0.25247183 0.11859405
0.66940765 0.25689910 0.12082405
0.67729370 0.26130602 0.12306255
0.68463249 0.26575543 0.12535349
0.69228379 0.27027234 0.12764801
0.70032675 0.27476756 0.12992438
0.70764302 0.27925871 0.13220827
0.71481588 0.28384758 0.13449783
0.72206746 0.28844851 0.13677332
0.72932808 0.29303436 0.13903276
0.06723339 0.11253803 0.03468640
0.06807693 0.11257534 0.03472466
0.06935028 0.11263316 0.03478091
0.07230166 0.11277347 0.03492403
0.07635376 0.11297969 0.03512175
0.08173801 0.11327785 0.03540504
0.08831695 0.11367516 0.03576967
0.09579954 0.11415564 0.03621350
0.10450069 0.11478557 0.03677106
0.11356548 0.11545821 0.03737365
0.12364655 0.11638245 0.03814017
0.13402892 0.11733963 0.03893241
0.14488351 0.11846205 0.03983994
0.15607563 0.11971519 0.04082675
0.16747733 0.12107435 0.04186870
0.17903901 0.12251195 0.04301166
0.19100256 0.12429092 0.04433238
0.20307880 0.12612064 0.04561399
0.21528742 0.12803777 0.04695587
0.22766562 0.13011258 0.04833445
0.24017840 0.13229176 0.04981355
0.25277547 0.13451618 0.05133981
0.26555496 0.13703053 0.05305248
0.27838593 0.13955594 0.05471943
0.29131038 0.14225120 0.05652847
0.30432837 0.14501401 0.05817635
0.31739381 0.14784779 0.05984237
0.33054105 0.15080176 0.06160857
0.34371230 0.15373378 0.06340290
0.35697742 0.15689992 0.06531467
0.37026559 0.16002807 0.06721308
0.38362970 0.16337109 0.06918856
0.39703195 0.16670280 0.07115280
0.41049889 0.17012836 0.07312418
0.42400212 0.17356272 0.07506837
0.43757948 0.17707269 0.07705332
0.45119135 0.18069669 0.07903595
0.46480579 0.18429008 0.08102095
0.47856913 0.18798966 0.08305866
0.49237125 0.19164944 0.08507055
0.50600114 0.19550201 0.08713838
0.51918218 0.19942772 0.08919989
0.53198683 0.20328638 0.09128260
0.54431041 0.20725685 0.09343008
0.55607063 0.21119396 0.09555203
0.56728033 0.21515998 0.09766974
0.57808050 0.21926607 0.09981274
0.58853950 0.22333861 0.10192964
0.59879238 0.22744821 0.10410828
0.60872856 0.23163010 0.10629552
0.61836709 0.23578511 0.10845922
0.62755134 0.23994586 0.11065682
0.63630568 0.24421348 0.11287546
0.64489835 0.24845333 0.11507039
0.65314247 0.25270347 0.11728169
0.66139130 0.25708939 0.11951354
0.66956483 0.26145386 0.12172580
0.67743994 0.26578996 0.12394180
0.68477427 0.27018206 0.12621569
0.69241936 0.27459274 0.12848838
0.70045518 0.27898203 0.13074228
0.70776861 0.28337018 0.13301109
0.71494092 0.28789137 0.13529248
0.72218962 0.29239674 0.13755669
0.72944620 0.29688450 0.13980470
0.07564243 0.12630779 0.03890891
0.07637266 0.12634152 0.03894104
0.07742842 0.12639127 0.03898669
0.08007231 0.12651941 0.03910861
0.08353989 0.12669335 0.03926922
0.08858227 0.12696595 0.03952243
0.09445131 0.12730021 0.03982510
0.10160148 0.12774187 0.04022782
0.10942742 0.12826173 0.04069243
0.11830569 0.12891297 0.04127591
0.12746148 0.12959109 0.04189825
0.13764844 0.13049921 0.04270021
0.14806810 0.13146705 0.04352630
0.15891518 0.13254351 0.04443257
0.17010045 0.13374054 0.04540270
0.18151826 0.13505873 0.04642763
0.19314226 0.13650951 0.04750477
0.20501047 0.13809841 0.04868255
0.21705522 0.13979120 0.04993465
0.22929990 0.14165300 0.05130774
0.24170498 0.14366474 0.05275119
0.25419108 0.14572869 0.05423012
0.26683194 0.14791317 0.05582886
0.27956878 0.15018857 0.05735540
0.29238787 0.15252217 0.05885722
0.30534443 0.15504776 0.06045037
0.31833576 0.15757669 0.06206801
0.33145166 0.16038125 0.06382011
0.34458224 0.16314914 0.06557525
0.35781196 0.16606258 0.06743620
0.37105978 0.16895011 0.06927619
0.38439000 0.17204572 0.07115618
0.39774670 0.17508299 0.07301046
0.41119089 0.17840113 0.07493145
0.42465893 0.18167567 0.07680624
0.43821548 0.18502661 0.07874751
0.45180038 0.18838989 0.08068452
0.46539401 0.19182598 0.08263058
0.47914094 0.19540987 0.08461392
0.49290862 0.19894380 0.08657517
0.50650178 0.20261428 0.08861318
0.51964701 0.20625694 0.09063142
0.53242351 0.20995999 0.09268512
0.54470969 0.21380801 0.09479869
0.55643372 0.21762086 0.09688590
0.56762071 0.22148083 0.09897637
0.57840176 0.22539206 0.10107491
0.58884313 0.22927078 0.10314781
0.59908058 0.23330747 0.10530921
0.60899574 0.23738372 0.10746700
0.61861468 0.24143220 0.10960152
0.62778169 0.24551897 0.11177514
0.63652152 0.24963222 0.11395873
0.64510682 0.25371828 0.11611898
0.65334927 0.25788457 0.11831515
0.66158483 0.26215583 0.12053045
0.66974456 0.26640547 0.12272636
0.67760920 0.27064202 0.12492271
0.68493873 0.27498575 0.12717689
0.69257415 0.27930690 0.12941834
0.70059889 0.28360700 0.13164007
0.70791053 0.28794760 0.13389742
0.71508004 0.29234916 0.13616399
0.72232451 0.29673253 0.13841355
0.72957551 0.30109335 0.14064667
0.08398022 0.14031212 0.04324622
0.08457612 0.14033989 0.04327387
0.08553882 0.14038521 0.04331813
0.08770128 0.14048835 0.04342163
0.09101744 0.14065151 0.04358101
0.09558608 0.14088723 0.04380467
0.10101236 0.14118385 0.04408169
0.10756762 0.14156907 0.04444381
